; generated by Slic3r 0.7.2b on 2012-05-25 at 00:23:22

; layer_height = 0.2
; perimeters = 2
; solid_layers = 4
; fill_density = 0.3
; nozzle_diameter = 0.5
; filament_diameter = 2.9
; extrusion_multiplier = 1
; perimeter_speed = 90
; infill_speed = 150
; travel_speed = 150
; extrusion_width_ratio = 0
; scale = 1
; single wall width = 0.70mm

;G28 ; home all axes
G90 ; use absolute coordinates
G21 ; set units to millimeters
G92 E0 ; reset extrusion distance
M82 ; use absolute distances for extrusion
G1 Z0.200 F9000.000 ; move to next layer
G1 X27.808 Y41.639 ; move to first skirt point
G1 F1800.000 E1.00000 ; compensate retraction
G1 X29.488 Y40.489 F216.000 E1.04051 ; skirt
G1 X29.738 Y40.339 E1.04631 ; skirt
G1 X30.258 Y40.089 E1.05779 ; skirt
G1 X30.798 Y39.879 E1.06931 ; skirt
G1 X31.358 Y39.729 E1.08085 ; skirt
G1 X31.928 Y39.629 E1.09236 ; skirt
G1 X33.658 Y39.419 E1.12703 ; skirt
G1 X34.378 Y39.379 E1.14138 ; skirt
G1 X126.688 Y39.389 E2.97797 ; skirt
G1 X126.998 Y39.409 E2.98415 ; skirt
G1 X127.308 Y39.449 E2.99037 ; skirt
G1 X127.918 Y39.579 E3.00277 ; skirt
G1 X130.408 Y40.499 E3.05559 ; skirt
G1 X130.668 Y40.619 E3.06129 ; skirt
G1 X131.178 Y40.909 E3.07296 ; skirt
G1 X131.658 Y41.239 E3.08455 ; skirt
G1 X132.098 Y41.609 E3.09599 ; skirt
G1 X132.308 Y41.809 E3.10175 ; skirt
G1 X133.838 Y43.549 E3.14785 ; skirt
G1 X134.018 Y43.779 E3.15366 ; skirt
G1 X134.178 Y44.009 E3.15924 ; skirt
G1 X134.468 Y44.509 E3.17074 ; skirt
G1 X134.718 Y45.039 E3.18240 ; skirt
G1 X134.908 Y45.579 E3.19379 ; skirt
G1 X135.468 Y47.839 E3.24011 ; skirt
G1 X135.518 Y48.129 E3.24597 ; skirt
G1 X135.578 Y48.999 E3.26332 ; skirt
G1 X135.568 Y111.289 E4.50263 ; skirt
G1 X135.518 Y111.869 E4.51421 ; skirt
G1 X135.468 Y112.159 E4.52007 ; skirt
G1 X134.908 Y114.419 E4.56639 ; skirt
G1 X134.818 Y114.689 E4.57205 ; skirt
G1 X134.598 Y115.219 E4.58347 ; skirt
G1 X134.328 Y115.729 E4.59495 ; skirt
G1 X134.178 Y115.979 E4.60075 ; skirt
G1 X133.838 Y116.439 E4.61213 ; skirt
G1 X132.308 Y118.179 E4.65823 ; skirt
G1 X131.658 Y118.749 E4.67543 ; skirt
G1 X131.178 Y119.079 E4.68702 ; skirt
G1 X130.668 Y119.369 E4.69869 ; skirt
G1 X128.218 Y120.319 E4.75097 ; skirt
G1 X127.918 Y120.409 E4.75721 ; skirt
G1 X127.308 Y120.539 E4.76961 ; skirt
G1 X126.998 Y120.579 E4.77583 ; skirt
G1 X126.378 Y120.609 E4.78818 ; skirt
G1 X34.378 Y120.609 E6.61860 ; skirt
G1 X33.658 Y120.569 E6.63295 ; skirt
G1 X31.358 Y120.259 E6.67912 ; skirt
G1 X30.798 Y120.109 E6.69066 ; skirt
G1 X30.258 Y119.899 E6.70218 ; skirt
G1 X29.738 Y119.649 E6.71366 ; skirt
G1 X27.568 Y118.179 E6.76581 ; skirt
G1 X27.338 Y117.999 E6.77162 ; skirt
G1 X26.908 Y117.599 E6.78331 ; skirt
G1 X26.348 Y116.929 E6.80068 ; skirt
G1 X26.178 Y116.679 E6.80669 ; skirt
G1 X24.958 Y114.379 E6.85849 ; skirt
G1 X24.738 Y113.839 E6.87009 ; skirt
G1 X24.578 Y113.289 E6.88149 ; skirt
G1 X24.468 Y112.729 E6.89285 ; skirt
G1 X24.418 Y112.159 E6.90423 ; skirt
G1 X24.418 Y47.829 E8.18413 ; skirt
G1 X24.468 Y47.259 E8.19551 ; skirt
G1 X24.578 Y46.699 E8.20687 ; skirt
G1 X24.738 Y46.149 E8.21826 ; skirt
G1 X24.958 Y45.609 E8.22986 ; skirt
G1 X26.028 Y43.559 E8.27587 ; skirt
G1 X26.178 Y43.309 E8.28167 ; skirt
G1 X26.348 Y43.059 E8.28769 ; skirt
G1 X26.708 Y42.609 E8.29915 ; skirt
G1 X26.908 Y42.389 E8.30507 ; skirt
G1 X27.338 Y41.989 E8.31675 ; skirt
G1 X27.722 Y41.700 E8.32632 ; skirt
G1 F1800.000 E7.32632 ; retract
G92 E0
G1 X124.840 Y109.091 F9000.000 ; move to first perimeter point
G1 F1800.000 E1.00000 ; compensate retraction
G1 X127.044 Y109.091 F216.000 E1.04385 ; perimeter
G1 X128.146 Y111.000 E1.08771 ; perimeter
G1 X127.044 Y112.909 E1.13156 ; perimeter
G1 X124.840 Y112.909 E1.17541 ; perimeter
G1 X123.738 Y111.000 E1.21926 ; perimeter
G1 X124.787 Y109.182 E1.26103 ; perimeter
G1 F1800.000 E0.26103 ; retract
G92 E0
G1 X124.840 Y50.909 F9000.000 ; move to first perimeter point
G1 F1800.000 E1.00000 ; compensate retraction
G1 X123.738 Y49.000 F216.000 E1.04385 ; perimeter
G1 X124.840 Y47.091 E1.08771 ; perimeter
G1 X127.044 Y47.091 E1.13156 ; perimeter
G1 X128.146 Y49.000 E1.17541 ; perimeter
G1 X127.044 Y50.909 E1.21927 ; perimeter
G1 X124.945 Y50.909 E1.26103 ; perimeter
G1 F1800.000 E0.26103 ; retract
G92 E0
G1 X36.146 Y49.000 F9000.000 ; move to first perimeter point
G1 F1800.000 E1.00000 ; compensate retraction
G1 X35.044 Y50.909 F216.000 E1.04385 ; perimeter
G1 X32.840 Y50.909 E1.08771 ; perimeter
G1 X31.738 Y49.000 E1.13156 ; perimeter
G1 X32.840 Y47.091 E1.17541 ; perimeter
G1 X35.044 Y47.091 E1.21927 ; perimeter
G1 X36.094 Y48.909 E1.26103 ; perimeter
G1 F1800.000 E0.26103 ; retract
G92 E0
G1 X42.592 Y57.650 F9000.000 ; move to first perimeter point
G1 F1800.000 E1.00000 ; compensate retraction
G1 X118.292 Y57.650 F216.000 E2.50611 ; perimeter
G1 X118.292 Y103.350 E3.41535 ; perimeter
G1 X42.592 Y103.350 E4.92147 ; perimeter
G1 X42.592 Y57.755 E5.82862 ; perimeter
G1 X41.913 Y56.971 F9000.000 ; move to first perimeter point
G1 X118.970 Y56.971 F216.000 E7.36173 ; perimeter
G1 X118.970 Y104.029 E8.29797 ; perimeter
G1 X41.913 Y104.029 E9.83109 ; perimeter
G1 X41.913 Y57.076 E10.76524 ; perimeter
G1 F1800.000 E9.76524 ; retract
G92 E0
G1 X35.044 Y109.091 F9000.000 ; move to first perimeter point
G1 F1800.000 E1.00000 ; compensate retraction
G1 X36.146 Y111.000 F216.000 E1.04385 ; perimeter
G1 X35.044 Y112.909 E1.08771 ; perimeter
G1 X32.840 Y112.909 E1.13156 ; perimeter
G1 X31.738 Y111.000 E1.17541 ; perimeter
G1 X32.840 Y109.091 E1.21926 ; perimeter
G1 X34.939 Y109.091 E1.26103 ; perimeter
G1 X35.436 Y108.413 F9000.000 ; move to first perimeter point
G1 X32.664 Y108.413 F216.000 E1.31617 ; perimeter
G1 X32.899 Y108.250 E1.32186 ; perimeter
G1 X33.970 Y108.120 E1.34333 ; perimeter
G1 X33.970 Y51.880 E2.46228 ; perimeter
G1 X32.899 Y51.750 E2.48375 ; perimeter
G1 X32.664 Y51.587 E2.48943 ; perimeter
G1 X35.436 Y51.587 E2.54458 ; perimeter
G1 X36.913 Y49.029 E2.60336 ; perimeter
G1 X122.702 Y49.029 E4.31021 ; perimeter
G1 X123.741 Y47.050 E4.35467 ; perimeter
G1 X124.305 Y46.661 E4.36831 ; perimeter
G1 X122.954 Y49.000 E4.42205 ; perimeter
G1 X124.448 Y51.587 E4.48149 ; perimeter
G1 X127.171 Y51.587 E4.53567 ; perimeter
G1 X126.913 Y51.685 E4.54116 ; perimeter
G1 X126.913 Y108.315 E5.66785 ; perimeter
G1 X127.172 Y108.413 E5.67335 ; perimeter
G1 X124.448 Y108.413 E5.72754 ; perimeter
G1 X122.954 Y111.000 E5.78698 ; perimeter
G1 X124.305 Y113.339 E5.84073 ; perimeter
G1 X123.741 Y112.950 E5.85437 ; perimeter
G1 X123.227 Y111.971 E5.87635 ; perimeter
G1 X36.896 Y111.971 E7.59399 ; perimeter
G1 X35.612 Y113.420 E7.63249 ; perimeter
G1 X35.510 Y113.459 E7.63468 ; perimeter
G1 X36.930 Y111.000 E7.69117 ; perimeter
G1 X35.488 Y108.504 E7.74852 ; perimeter
G1 F1800.000 E6.74852 ; retract
G92 E0
G1 X33.292 Y107.519 F9000.000 ; move to first perimeter point
G1 F1800.000 E1.00000 ; compensate retraction
G1 X33.292 Y52.481 F216.000 E2.09503 ; perimeter
G1 X32.651 Y52.403 E2.10787 ; perimeter
G1 X31.218 Y51.413 E2.14253 ; perimeter
G1 X30.408 Y49.871 E2.17719 ; perimeter
G1 X30.408 Y48.129 E2.21185 ; perimeter
G1 X31.218 Y46.587 E2.24651 ; perimeter
G1 X32.651 Y45.597 E2.28116 ; perimeter
G1 X34.381 Y45.387 E2.31582 ; perimeter
G1 X36.009 Y46.005 E2.35048 ; perimeter
G1 X37.165 Y47.309 E2.38514 ; perimeter
G1 X37.421 Y48.350 E2.40648 ; perimeter
G1 X122.292 Y48.350 E4.09506 ; perimeter
G1 X123.218 Y46.587 E4.13468 ; perimeter
G1 X124.651 Y45.597 E4.16934 ; perimeter
G1 X126.381 Y45.387 E4.20400 ; perimeter
G1 X128.009 Y46.005 E4.23866 ; perimeter
G1 X129.165 Y47.309 E4.27331 ; perimeter
G1 X129.581 Y49.000 E4.30797 ; perimeter
G1 X129.165 Y50.691 E4.34263 ; perimeter
G1 X128.009 Y51.995 E4.37729 ; perimeter
G1 X127.592 Y52.154 E4.38617 ; perimeter
G1 X127.592 Y107.846 E5.49423 ; perimeter
G1 X128.009 Y108.005 E5.50311 ; perimeter
G1 X129.165 Y109.309 E5.53777 ; perimeter
G1 X129.581 Y111.000 E5.57243 ; perimeter
G1 X129.165 Y112.691 E5.60709 ; perimeter
G1 X128.009 Y113.995 E5.64174 ; perimeter
G1 X126.381 Y114.613 E5.67640 ; perimeter
G1 X124.651 Y114.403 E5.71106 ; perimeter
G1 X123.218 Y113.413 E5.74572 ; perimeter
G1 X122.817 Y112.650 E5.76287 ; perimeter
G1 X37.201 Y112.650 E7.46627 ; perimeter
G1 X36.009 Y113.995 E7.50203 ; perimeter
G1 X34.381 Y114.613 E7.53669 ; perimeter
G1 X32.651 Y114.403 E7.57134 ; perimeter
G1 X31.218 Y113.413 E7.60600 ; perimeter
G1 X30.408 Y111.871 E7.64066 ; perimeter
G1 X30.408 Y110.129 E7.67532 ; perimeter
G1 X31.218 Y108.587 E7.70998 ; perimeter
G1 X32.651 Y107.597 E7.74464 ; perimeter
G1 X33.188 Y107.532 E7.75539 ; perimeter
G1 X34.451 Y106.596 F9000.000 ; move to first fill point
G1 X35.788 Y107.932 F240.000 E7.79334 ; fill
G1 X35.955 Y108.100 F9000.000 ; move to first fill point
G1 X39.347 Y111.491 F240.000 E7.88964 ; fill
G1 X40.310 Y111.491 F9000.000 ; move to first fill point
G1 X34.451 Y105.632 F240.000 E8.05603 ; fill
G1 X34.451 Y104.668 F9000.000 ; move to first fill point
G1 X41.274 Y111.491 F240.000 E8.24978 ; fill
G1 X42.237 Y111.491 F9000.000 ; move to first fill point
G1 X34.451 Y103.704 F240.000 E8.47090 ; fill
G1 X34.451 Y102.740 F9000.000 ; move to first fill point
G1 X43.202 Y111.491 F240.000 E8.71940 ; fill
G1 X44.166 Y111.491 F9000.000 ; move to first fill point
G1 X34.451 Y101.776 F240.000 E8.99528 ; fill
G1 X34.451 Y100.812 F9000.000 ; move to first fill point
G1 X45.129 Y111.491 F240.000 E9.29853 ; fill
G1 X46.094 Y111.491 F9000.000 ; move to first fill point
G1 X34.451 Y99.848 F240.000 E9.62915 ; fill
G1 X34.451 Y98.885 F9000.000 ; move to first fill point
G1 X47.057 Y111.491 F240.000 E9.98714 ; fill
G1 X48.021 Y111.491 F9000.000 ; move to first fill point
G1 X41.039 Y104.509 F240.000 E10.18541 ; fill
G1 X41.433 Y104.902 F9000.000 ; move to first fill point
G1 X34.451 Y97.921 F240.000 E10.38367 ; fill
G1 X34.451 Y96.957 F9000.000 ; move to first fill point
G1 X41.433 Y103.939 F240.000 E10.58194 ; fill
G1 X42.003 Y104.510 F9000.000 ; move to first fill point
G1 X48.985 Y111.492 F240.000 E10.78021 ; fill
G1 X49.949 Y111.491 F9000.000 ; move to first fill point
G1 X42.967 Y104.509 F240.000 E10.97848 ; fill
G1 X43.931 Y104.509 F9000.000 ; move to first fill point
G1 X50.913 Y111.491 F240.000 E11.17675 ; fill
G1 X51.877 Y111.491 F9000.000 ; move to first fill point
G1 X44.895 Y104.509 F240.000 E11.37503 ; fill
G1 X45.859 Y104.509 F9000.000 ; move to first fill point
G1 X52.841 Y111.491 F240.000 E11.57330 ; fill
G1 X53.805 Y111.492 F9000.000 ; move to first fill point
G1 X46.823 Y104.510 F240.000 E11.77157 ; fill
G1 X47.787 Y104.509 F9000.000 ; move to first fill point
G1 X54.769 Y111.491 F240.000 E11.96984 ; fill
G1 X55.733 Y111.491 F9000.000 ; move to first fill point
G1 X48.751 Y104.509 F240.000 E12.16811 ; fill
G1 X49.714 Y104.509 F9000.000 ; move to first fill point
G1 X56.696 Y111.491 F240.000 E12.36639 ; fill
G1 X57.661 Y111.491 F9000.000 ; move to first fill point
G1 X50.679 Y104.509 F240.000 E12.56466 ; fill
G1 X51.642 Y104.510 F9000.000 ; move to first fill point
G1 X58.624 Y111.491 F240.000 E12.76291 ; fill
G1 X59.588 Y111.491 F9000.000 ; move to first fill point
G1 X52.606 Y104.509 F240.000 E12.96118 ; fill
G1 X53.570 Y104.510 F9000.000 ; move to first fill point
G1 X60.552 Y111.492 F240.000 E13.15945 ; fill
G1 X61.516 Y111.491 F9000.000 ; move to first fill point
G1 X54.534 Y104.509 F240.000 E13.35773 ; fill
G1 X55.498 Y104.509 F9000.000 ; move to first fill point
G1 X62.480 Y111.491 F240.000 E13.55600 ; fill
G1 X63.443 Y111.491 F9000.000 ; move to first fill point
G1 X56.462 Y104.510 F240.000 E13.75425 ; fill
G1 X57.426 Y104.509 F9000.000 ; move to first fill point
G1 X64.408 Y111.491 F240.000 E13.95252 ; fill
G1 X65.372 Y111.492 F9000.000 ; move to first fill point
G1 X58.390 Y104.510 F240.000 E14.15079 ; fill
G1 X59.353 Y104.509 F9000.000 ; move to first fill point
G1 X66.335 Y111.491 F240.000 E14.34907 ; fill
G1 X67.300 Y111.491 F9000.000 ; move to first fill point
G1 X60.318 Y104.509 F240.000 E14.54734 ; fill
G1 X61.281 Y104.509 F9000.000 ; move to first fill point
G1 X68.263 Y111.491 F240.000 E14.74561 ; fill
G1 X69.228 Y111.491 F9000.000 ; move to first fill point
G1 X62.246 Y104.509 F240.000 E14.94388 ; fill
G1 X63.209 Y104.510 F9000.000 ; move to first fill point
G1 X70.191 Y111.491 F240.000 E15.14213 ; fill
G1 X71.155 Y111.491 F9000.000 ; move to first fill point
G1 X64.173 Y104.509 F240.000 E15.34041 ; fill
G1 X65.137 Y104.510 F9000.000 ; move to first fill point
G1 X72.119 Y111.492 F240.000 E15.53868 ; fill
G1 X73.083 Y111.491 F9000.000 ; move to first fill point
G1 X66.101 Y104.509 F240.000 E15.73695 ; fill
G1 X67.065 Y104.509 F9000.000 ; move to first fill point
G1 X74.047 Y111.491 F240.000 E15.93522 ; fill
G1 X75.010 Y111.491 F9000.000 ; move to first fill point
G1 X68.029 Y104.510 F240.000 E16.13347 ; fill
G1 X68.993 Y104.509 F9000.000 ; move to first fill point
G1 X75.975 Y111.491 F240.000 E16.33175 ; fill
G1 X76.939 Y111.492 F9000.000 ; move to first fill point
G1 X69.957 Y104.510 F240.000 E16.53002 ; fill
G1 X70.920 Y104.509 F9000.000 ; move to first fill point
G1 X77.902 Y111.491 F240.000 E16.72829 ; fill
G1 X78.867 Y111.491 F9000.000 ; move to first fill point
G1 X71.885 Y104.509 F240.000 E16.92656 ; fill
G1 X72.848 Y104.509 F9000.000 ; move to first fill point
G1 X79.830 Y111.491 F240.000 E17.12483 ; fill
G1 X80.794 Y111.491 F9000.000 ; move to first fill point
G1 X73.812 Y104.509 F240.000 E17.32311 ; fill
G1 X74.776 Y104.510 F9000.000 ; move to first fill point
G1 X81.757 Y111.491 F240.000 E17.52136 ; fill
G1 X82.722 Y111.491 F9000.000 ; move to first fill point
G1 X75.740 Y104.509 F240.000 E17.71963 ; fill
G1 X76.704 Y104.510 F9000.000 ; move to first fill point
G1 X83.686 Y111.492 F240.000 E17.91790 ; fill
G1 X84.650 Y111.491 F9000.000 ; move to first fill point
G1 X77.668 Y104.509 F240.000 E18.11617 ; fill
G1 X78.632 Y104.509 F9000.000 ; move to first fill point
G1 X85.614 Y111.491 F240.000 E18.31444 ; fill
G1 X86.577 Y111.491 F9000.000 ; move to first fill point
G1 X79.596 Y104.510 F240.000 E18.51270 ; fill
G1 X80.560 Y104.509 F9000.000 ; move to first fill point
G1 X87.542 Y111.491 F240.000 E18.71097 ; fill
G1 X88.505 Y111.492 F9000.000 ; move to first fill point
G1 X81.523 Y104.510 F240.000 E18.90924 ; fill
G1 X82.487 Y104.509 F9000.000 ; move to first fill point
G1 X89.469 Y111.491 F240.000 E19.10751 ; fill
G1 X90.434 Y111.491 F9000.000 ; move to first fill point
G1 X83.452 Y104.509 F240.000 E19.30578 ; fill
G1 X84.415 Y104.509 F9000.000 ; move to first fill point
G1 X91.397 Y111.491 F240.000 E19.50406 ; fill
G1 X92.361 Y111.491 F9000.000 ; move to first fill point
G1 X85.379 Y104.509 F240.000 E19.70233 ; fill
G1 X86.343 Y104.510 F9000.000 ; move to first fill point
G1 X93.324 Y111.491 F240.000 E19.90058 ; fill
G1 X94.289 Y111.491 F9000.000 ; move to first fill point
G1 X87.307 Y104.509 F240.000 E20.09885 ; fill
G1 X88.271 Y104.510 F9000.000 ; move to first fill point
G1 X95.253 Y111.492 F240.000 E20.29712 ; fill
G1 X96.216 Y111.491 F9000.000 ; move to first fill point
G1 X89.234 Y104.509 F240.000 E20.49540 ; fill
G1 X90.199 Y104.509 F9000.000 ; move to first fill point
G1 X97.181 Y111.491 F240.000 E20.69367 ; fill
G1 X98.144 Y111.491 F9000.000 ; move to first fill point
G1 X91.163 Y104.510 F240.000 E20.89192 ; fill
G1 X92.126 Y104.509 F9000.000 ; move to first fill point
G1 X99.108 Y111.491 F240.000 E21.09019 ; fill
G1 X100.072 Y111.492 F9000.000 ; move to first fill point
G1 X93.090 Y104.510 F240.000 E21.28846 ; fill
G1 X94.054 Y104.509 F9000.000 ; move to first fill point
G1 X101.036 Y111.491 F240.000 E21.48674 ; fill
G1 X102.001 Y111.491 F9000.000 ; move to first fill point
G1 X95.019 Y104.509 F240.000 E21.68501 ; fill
G1 X95.982 Y104.509 F9000.000 ; move to first fill point
G1 X102.964 Y111.491 F240.000 E21.88328 ; fill
G1 X103.928 Y111.491 F9000.000 ; move to first fill point
G1 X96.946 Y104.509 F240.000 E22.08155 ; fill
G1 X97.910 Y104.510 F9000.000 ; move to first fill point
G1 X104.891 Y111.491 F240.000 E22.27980 ; fill
G1 X105.856 Y111.491 F9000.000 ; move to first fill point
