; generated by Slic3r 0.7.2b on 2012-05-17 at 04:42:41

; layer_height = 0.2
; perimeters = 1
; solid_layers = 3
; fill_density = 0.4
; nozzle_diameter = 0.5
; filament_diameter = 2.9
; extrusion_multiplier = 0.9
; perimeter_speed = 60
; infill_speed = 150
; travel_speed = 130
; extrusion_width_ratio = 0
; scale = 1
; single wall width = 0.70mm

M104 S225 ; set temperature
;G28 ; home all axes
M109 S225 ; wait for temperature to be reached
G90 ; use absolute coordinates
G21 ; set units to millimeters
G92 E0 ; reset extrusion distance
M82 ; use absolute distances for extrusion
G1 Z0.200 F7800.000
G1 X30.589 Y21.980
G1 F1800.000 E1.00000
G1 X30.769 Y21.490 F1080.000 E1.00935
G1 X31.119 Y20.800 E1.02320
G1 X31.409 Y20.360 E1.03264
G1 X31.729 Y19.950 E1.04195
G1 X31.899 Y19.760 E1.04652
G1 X32.459 Y19.230 E1.06032
G1 X32.879 Y18.910 E1.06978
G1 X33.089 Y18.770 E1.07430
G1 X33.779 Y18.400 E1.08832
G1 X34.259 Y18.200 E1.09763
G1 X34.749 Y18.050 E1.10680
G1 X35.259 Y17.940 E1.11615
G1 X35.769 Y17.870 E1.12536
G1 X36.289 Y17.850 E1.13468
G1 X95.119 Y17.870 E2.18811
G1 X95.639 Y17.940 E2.19750
G1 X95.899 Y17.990 E2.20224
G1 X96.409 Y18.130 E2.21171
G1 X96.909 Y18.310 E2.22123
G1 X97.379 Y18.540 E2.23060
G1 X98.059 Y18.950 E2.24482
G1 X98.479 Y19.280 E2.25438
G1 X98.669 Y19.450 E2.25894
G1 X99.219 Y20.030 E2.27326
G1 X99.679 Y20.670 E2.28737
G1 X130.559 Y81.380 E3.50701
G1 X130.769 Y81.910 E3.51721
G1 X130.979 Y82.720 E3.53220
G1 X135.029 Y111.000 E4.04375
G1 X135.089 Y111.850 E4.05901
G1 X135.079 Y123.940 E4.27550
G1 X135.029 Y124.500 E4.28556
G1 X134.849 Y125.340 E4.30095
G1 X129.559 Y138.610 E4.55675
G1 X129.329 Y139.070 E4.56596
G1 X129.069 Y139.500 E4.57496
G1 X128.919 Y139.710 E4.57958
G1 X128.599 Y140.110 E4.58875
G1 X128.429 Y140.300 E4.59331
G1 X128.249 Y140.480 E4.59787
G1 X128.059 Y140.650 E4.60244
G1 X127.659 Y140.970 E4.61161
G1 X127.239 Y141.260 E4.62075
G1 X127.019 Y141.390 E4.62532
G1 X126.559 Y141.620 E4.63453
G1 X126.089 Y141.810 E4.64361
G1 X125.599 Y141.960 E4.65279
G1 X124.849 Y142.100 E4.66645
G1 X124.599 Y142.130 E4.67096
G1 X124.089 Y142.150 E4.68010
G1 X37.179 Y142.130 E6.23633
G1 X36.679 Y142.070 E6.24535
G1 X36.179 Y141.960 E6.25451
G1 X35.459 Y141.730 E6.26805
G1 X34.999 Y141.520 E6.27710
G1 X34.559 Y141.280 E6.28608
G1 X34.139 Y141.000 E6.29512
G1 X33.559 Y140.510 E6.30871
G1 X33.379 Y140.340 E6.31314
G1 X32.889 Y139.760 E6.32674
G1 X32.739 Y139.560 E6.33122
G1 X32.599 Y139.350 E6.33574
G1 X32.349 Y138.910 E6.34480
G1 X32.139 Y138.450 E6.35385
G1 X31.889 Y137.740 E6.36733
G1 X31.779 Y137.250 E6.37632
G1 X27.689 Y108.530 E6.89578
G1 X25.679 Y76.650 E7.46776
G1 X26.189 Y35.940 E8.19679
G1 X26.259 Y35.350 E8.20742
G1 X26.389 Y34.760 E8.21824
G1 X30.556 Y22.080 E8.45725
G1 F1800.000 E7.45725
G92 E0
G1 X77.288 Y121.328 F7800.000
G1 F1800.000 E1.00000
G1 X79.308 Y120.672 F1080.000 E1.03802
G1 X81.419 Y120.894 E1.07604
G1 X83.260 Y121.956 E1.11410
G1 X84.508 Y123.672 E1.15209
G1 X84.951 Y125.750 E1.19013
G1 X84.508 Y127.828 E1.22817
G1 X83.260 Y129.546 E1.26619
G1 X81.420 Y130.608 E1.30425
G1 X79.308 Y130.830 E1.34228
G1 X77.288 Y130.174 E1.38030
G1 X75.710 Y128.752 E1.41834
G1 X74.845 Y126.812 E1.45637
G1 X74.845 Y124.690 E1.49438
G1 X75.710 Y122.748 E1.53244
G1 X77.210 Y121.398 E1.56858
G1 F1800.000 E0.56858
G92 E0
G1 X69.975 Y122.190 F7800.000
G1 F1800.000 E1.00000
G1 X69.331 Y120.274 F1080.000 E1.03620
G1 X68.287 Y118.541 E1.07242
G1 X68.201 Y118.450 E1.07467
G1 X126.791 Y118.450 E2.12379
G1 X126.791 Y116.150 E2.16498
G1 X65.536 Y116.150 E3.26183
G1 X65.221 Y115.939 E3.26861
G1 X63.343 Y115.191 E3.30481
G1 X61.348 Y114.862 E3.34102
G1 X59.330 Y114.973 E3.37720
G1 X57.381 Y115.513 E3.41342
G1 X56.178 Y116.150 E3.43780
G1 X41.791 Y116.150 E3.69541
G1 X41.791 Y111.850 E3.77241
G1 X129.091 Y111.850 E5.33563
G1 X129.091 Y123.650 E5.54692
G1 X124.091 Y123.650 E5.63645
G1 X124.091 Y136.150 E5.86028
G1 X38.793 Y136.150 E7.38765
G1 X38.793 Y124.350 E7.59894
G1 X41.791 Y124.350 E7.65262
G1 X41.791 Y118.450 E7.75827
G1 X53.535 Y118.450 E7.96856
G1 X52.827 Y119.381 E7.98950
G1 X51.979 Y121.216 E8.02570
G1 X51.545 Y123.190 E8.06189
G1 X51.545 Y125.212 E8.09810
G1 X51.979 Y127.186 E8.13430
G1 X52.827 Y129.022 E8.17050
G1 X54.053 Y130.632 E8.20675
G1 X55.593 Y131.941 E8.24294
G1 X57.381 Y132.889 E8.27916
G1 X59.330 Y133.429 E8.31539
G1 X61.348 Y133.540 E8.35157
G1 X63.343 Y133.211 E8.38778
G1 X65.222 Y132.463 E8.42399
G1 X66.897 Y131.328 E8.46022
G1 X68.287 Y129.861 E8.49641
G1 X69.331 Y128.128 E8.53264
G1 X69.975 Y126.212 E8.56884
G1 X70.195 Y124.200 E8.60507
G1 X69.986 Y122.295 E8.63939
G1 F1800.000 E7.63939
G92 E0
G1 X92.912 Y99.922 F7800.000
G1 F1800.000 E1.00000
G1 X91.733 Y98.091 F1080.000 E1.03899
G1 X91.733 Y95.911 E1.07803
G1 X92.912 Y94.080 E1.11702
G1 X94.891 Y93.175 E1.15599
G1 X97.049 Y93.486 E1.19502
G1 X98.694 Y94.911 E1.23399
G1 X99.308 Y97.002 E1.27302
G1 X98.694 Y99.091 E1.31201
G1 X97.049 Y100.516 E1.35098
G1 X94.891 Y100.827 E1.39001
G1 X93.008 Y99.965 E1.42710
G1 F1800.000 E0.42710
G92 E0
G1 X90.991 Y98.700 F7800.000
G1 F1800.000 E1.00000
G1 X90.991 Y90.450 F1080.000 E1.14773
G1 X122.791 Y90.450 E1.71715
G1 X122.791 Y88.152 E1.75829
G1 X37.793 Y88.152 E3.28029
G1 X37.793 Y83.852 E3.35729
G1 X125.091 Y83.852 E4.92047
G1 X125.091 Y95.652 E5.13176
G1 X120.091 Y95.652 E5.22129
G1 X120.091 Y108.150 E5.44508
G1 X34.791 Y108.150 E6.97249
G1 X34.791 Y96.352 E7.18374
G1 X37.793 Y96.352 E7.23750
G1 X37.793 Y90.450 E7.34318
G1 X70.293 Y90.450 E7.92513
G1 X70.293 Y98.700 E8.07286
G1 X90.886 Y98.700 E8.44160
G1 F1800.000 E7.44160
G92 E0
G1 X89.093 Y76.650 F7800.000
G1 F1800.000 E1.00000
G1 X32.791 Y76.650 F1080.000 E2.00816
G1 X32.791 Y64.850 E2.21945
G1 X35.791 Y64.850 E2.27317
G1 X35.791 Y58.950 E2.37882
G1 X75.941 Y58.950 E3.09775
G1 X75.941 Y63.802 E3.18463
G1 X89.641 Y63.802 E3.42995
G1 X89.641 Y58.950 E3.51683
G1 X91.793 Y58.950 E3.55536
G1 X91.793 Y56.652 E3.59651
G1 X89.641 Y56.652 E3.63505
G1 X89.641 Y54.102 E3.68071
G1 X75.941 Y54.102 E3.92602
G1 X75.941 Y56.652 E3.97169
G1 X73.541 Y56.652 E4.01466
G1 X73.541 Y52.700 E4.08543
G1 X46.841 Y52.700 E4.56352
G1 X46.841 Y56.652 E4.63429
G1 X35.791 Y56.652 E4.83215
G1 X35.791 Y52.352 E4.90915
G1 X94.093 Y52.352 E5.95312
G1 X94.093 Y64.150 E6.16438
G1 X89.093 Y64.150 E6.25391
G1 X89.093 Y76.545 E6.47586
G1 F1800.000 E5.47586
G92 E0
G1 X89.593 Y48.150 F7800.000
G1 F1800.000 E1.00000
G1 X33.291 Y48.150 F1080.000 E2.00816
G1 X33.291 Y36.352 E2.21942
G1 X36.291 Y36.352 E2.27313
G1 X36.291 Y30.452 E2.37878
G1 X36.311 Y30.452 E2.37914
G1 X36.311 Y43.830 E2.61869
G1 X54.013 Y43.830 E2.93567
G1 X54.013 Y30.452 E3.17522
G1 X58.593 Y30.452 E3.25723
G1 X58.593 Y46.590 E3.54620
G1 X74.291 Y46.590 E3.82729
G1 X74.291 Y30.452 E4.11626
G1 X92.293 Y30.452 E4.43861
G1 X92.293 Y28.150 E4.47983
G1 X36.291 Y28.150 E5.48261
G1 X36.291 Y23.850 E5.55961
G1 X94.593 Y23.850 E6.60358
G1 X94.593 Y35.652 E6.81491
G1 X89.593 Y35.652 E6.90444
G1 X89.593 Y48.045 E7.12635
G1 F1800.000 E6.12635
G92 E0
G1 X59.466 Y30.237 F7800.000
G1 F1800.000 E1.00000
G1 X73.767 Y30.173 F1080.000 E1.25607
G1 F1800.000 E0.25607
G92 E0
G1 X73.717 Y112.330 F7800.000
G1 F1800.000 E1.00000
G1 X77.056 Y115.669 F1800.000 E1.08519
G1 X76.093 Y115.669 F7800.000
G1 X72.754 Y112.330 F1800.000 E1.17038
G1 X71.791 Y112.330 F7800.000
G1 X75.130 Y115.669 F1800.000 E1.25558
G1 X74.167 Y115.669 F7800.000
G1 X70.828 Y112.330 F1800.000 E1.34077
G1 X69.865 Y112.330 F7800.000
G1 X73.204 Y115.669 F1800.000 E1.42596
G1 X72.240 Y115.669 F7800.000
G1 X68.901 Y112.330 F1800.000 E1.51115
G1 X67.938 Y112.330 F7800.000
G1 X71.277 Y115.669 F1800.000 E1.59634
G1 X70.314 Y115.669 F7800.000
G1 X66.975 Y112.330 F1800.000 E1.68154
G1 X66.012 Y112.330 F7800.000
G1 X69.351 Y115.669 F1800.000 E1.76673
G1 X68.388 Y115.669 F7800.000
G1 X65.049 Y112.330 F1800.000 E1.85192
G1 X64.086 Y112.330 F7800.000
G1 X67.425 Y115.669 F1800.000 E1.93711
G1 X66.462 Y115.669 F7800.000
G1 X63.123 Y112.330 F1800.000 E2.02231
G1 X62.160 Y112.330 F7800.000
G1 X65.114 Y115.285 F1800.000 E2.09768
G1 X63.573 Y114.706 F7800.000
G1 X61.197 Y112.330 F1800.000 E2.15830
G1 X60.234 Y112.330 F7800.000
G1 X62.420 Y114.517 F1800.000 E2.21409
G1 X61.333 Y114.392 F7800.000
G1 X59.271 Y112.330 F1800.000 E2.26670
G1 X58.308 Y112.330 F7800.000
G1 X60.420 Y114.443 F1800.000 E2.32059
G1 X59.506 Y114.492 F7800.000
G1 X57.345 Y112.330 F1800.000 E2.37574
G1 X56.381 Y112.330 F7800.000
G1 X58.737 Y114.686 F1800.000 E2.43584
G1 X57.982 Y114.894 F7800.000
G1 X55.418 Y112.330 F1800.000 E2.50125
G1 X54.455 Y112.330 F7800.000
G1 X57.245 Y115.120 F1800.000 E2.57243
G1 X56.616 Y115.454 F7800.000
G1 X53.492 Y112.330 F1800.000 E2.65212
G1 X52.529 Y112.330 F7800.000
G1 X55.868 Y115.669 F1800.000 E2.73731
G1 X54.905 Y115.669 F7800.000
G1 X51.566 Y112.330 F1800.000 E2.82250
G1 X50.603 Y112.330 F7800.000
G1 X53.942 Y115.669 F1800.000 E2.90769
G1 X52.979 Y115.669 F7800.000
G1 X49.640 Y112.330 F1800.000 E2.99289
G1 X48.677 Y112.330 F7800.000
G1 X52.016 Y115.669 F1800.000 E3.07808
G1 X51.053 Y115.669 F7800.000
G1 X47.714 Y112.330 F1800.000 E3.16327
G1 X46.751 Y112.330 F7800.000
G1 X50.090 Y115.669 F1800.000 E3.24846
G1 X49.126 Y115.670 F7800.000
G1 X45.787 Y112.331 F1800.000 E3.33365
G1 X44.824 Y112.331 F7800.000
G1 X48.163 Y115.670 F1800.000 E3.41885
G1 X47.200 Y115.670 F7800.000
G1 X43.861 Y112.331 F1800.000 E3.50404
G1 X42.898 Y112.331 F7800.000
G1 X46.237 Y115.670 F1800.000 E3.58923
G1 X45.274 Y115.670 F7800.000
G1 X42.271 Y112.668 F1800.000 E3.66584
G1 X42.271 Y113.631 F7800.000
G1 X44.310 Y115.670 F1800.000 E3.71787
G1 X43.347 Y115.670 F7800.000
G1 X42.271 Y114.594 F1800.000 E3.74533
G1 X42.756 Y118.931 F7800.000
G1 X51.619 Y127.794 F1800.000 E3.97148
G1 X51.287 Y126.499 F7800.000
G1 X43.719 Y118.931 F1800.000 E4.16459
G1 X44.682 Y118.931 F7800.000
G1 X51.064 Y125.313 F1800.000 E4.32744
G1 X51.064 Y124.350 F7800.000
G1 X45.645 Y118.931 F1800.000 E4.46571
G1 X46.608 Y118.931 F7800.000
G1 X51.064 Y123.387 F1800.000 E4.57940
G1 X51.225 Y122.584 F7800.000
G1 X47.571 Y118.931 F1800.000 E4.67263
G1 X48.534 Y118.931 F7800.000
G1 X51.398 Y121.795 F1800.000 E4.74571
G1 X51.604 Y121.037 F7800.000
G1 X49.497 Y118.931 F1800.000 E4.79946
G1 X50.460 Y118.931 F7800.000
G1 X51.908 Y120.379 F1800.000 E4.83641
G1 X52.212 Y119.720 F7800.000
G1 X51.423 Y118.931 F1800.000 E4.85654
G1 F1800.000 E3.85654
G92 E0
G1 X42.271 Y119.409 F7800.000
G1 F1800.000 E1.00000
G1 X52.462 Y129.600 F1800.000 E1.26001
G1 X55.349 Y132.487 F7800.000
G1 X58.532 Y135.670 F1800.000 E1.34122
G1 X57.569 Y135.670 F7800.000
G1 X42.271 Y120.372 F1800.000 E1.73153
G1 X42.271 Y121.335 F7800.000
G1 X56.606 Y135.670 F1800.000 E2.09727
G1 X55.643 Y135.670 F7800.000
G1 X42.271 Y122.298 F1800.000 E2.43843
G1 X42.271 Y123.262 F7800.000
G1 X54.679 Y135.670 F1800.000 E2.75503
G1 X53.716 Y135.670 F7800.000
G1 X42.271 Y124.225 F1800.000 E3.04705
G1 X41.914 Y124.831 F7800.000
G1 X52.753 Y135.670 F1800.000 E3.32361
G1 X51.790 Y135.670 F7800.000
G1 X40.951 Y124.831 F1800.000 E3.60016
G1 X39.988 Y124.831 F7800.000
G1 X50.827 Y135.670 F1800.000 E3.87672
G1 X49.863 Y135.669 F7800.000
G1 X39.274 Y125.080 F1800.000 E4.14691
G1 X39.274 Y126.043 F7800.000
G1 X48.900 Y135.669 F1800.000 E4.39253
G1 X47.937 Y135.669 F7800.000
G1 X39.274 Y127.006 F1800.000 E4.61358
G1 X39.274 Y127.969 F7800.000
G1 X46.974 Y135.669 F1800.000 E4.81005
G1 X46.011 Y135.669 F7800.000
G1 X39.274 Y128.932 F1800.000 E4.98195
G1 X39.274 Y129.895 F7800.000
G1 X45.048 Y135.669 F1800.000 E5.12927
G1 X44.085 Y135.669 F7800.000
G1 X39.274 Y130.858 F1800.000 E5.25203
G1 X39.274 Y131.821 F7800.000
G1 X43.122 Y135.669 F1800.000 E5.35021
G1 X42.159 Y135.669 F7800.000
G1 X39.274 Y132.784 F1800.000 E5.42382
G1 X39.274 Y133.747 F7800.000
G1 X41.196 Y135.669 F1800.000 E5.47286
G1 X40.233 Y135.669 F7800.000
G1 X39.274 Y134.710 F1800.000 E5.49732
G1 F1800.000 E4.49732
G92 E0
G1 X57.235 Y133.410 F7800.000
G1 F1800.000 E1.00000
G1 X59.495 Y135.670 F1800.000 E1.05766
G1 X60.458 Y135.670 F7800.000
G1 X58.567 Y133.779 F1800.000 E1.10590
G1 X59.693 Y133.942 F7800.000
G1 X61.421 Y135.670 F1800.000 E1.15000
G1 X62.384 Y135.670 F7800.000
G1 X60.712 Y133.998 F1800.000 E1.19267
G1 X61.628 Y133.951 F7800.000
G1 X63.347 Y135.670 F1800.000 E1.23652
G1 X64.310 Y135.670 F7800.000
G1 X62.455 Y133.814 F1800.000 E1.28387
G1 X63.282 Y133.679 F7800.000
G1 X65.273 Y135.670 F1800.000 E1.33467
G1 X66.236 Y135.670 F7800.000
G1 X63.979 Y133.412 F1800.000 E1.39228
G1 X64.667 Y133.138 F7800.000
G1 X67.199 Y135.670 F1800.000 E1.45688
G1 X68.163 Y135.670 F7800.000
G1 X65.354 Y132.861 F1800.000 E1.52854
G1 X65.928 Y132.472 F7800.000
G1 X69.126 Y135.670 F1800.000 E1.61013
G1 X70.089 Y135.669 F7800.000
G1 X66.503 Y132.083 F1800.000 E1.70164
G1 X67.077 Y131.694 F7800.000
G1 X71.053 Y135.669 F1800.000 E1.80306
G1 X72.016 Y135.669 F7800.000
G1 X67.557 Y131.211 F1800.000 E1.91682
G1 X68.026 Y130.717 F7800.000
G1 X72.979 Y135.669 F1800.000 E2.04318
G1 X73.942 Y135.669 F7800.000
G1 X68.494 Y130.222 F1800.000 E2.18217
G1 X68.888 Y129.652 F7800.000
G1 X74.905 Y135.669 F1800.000 E2.33569
G1 X75.868 Y135.669 F7800.000
G1 X69.250 Y129.051 F1800.000 E2.50454
G1 X69.611 Y128.450 F7800.000
G1 X76.831 Y135.669 F1800.000 E2.68874
G1 X77.794 Y135.669 F7800.000
G1 X69.901 Y127.776 F1800.000 E2.89014
G1 X70.142 Y127.054 F7800.000
G1 X78.757 Y135.669 F1800.000 E3.10994
G1 X79.720 Y135.669 F7800.000
G1 X70.385 Y126.334 F1800.000 E3.34812
G1 X70.516 Y125.502 F7800.000
G1 X80.683 Y135.669 F1800.000 E3.60754
G1 X81.646 Y135.669 F7800.000
G1 X70.611 Y124.633 F1800.000 E3.88912
G1 X70.647 Y123.707 F7800.000
G1 X74.582 Y127.641 F1800.000 E3.98950
G1 X74.365 Y126.461 F7800.000
G1 X70.529 Y122.626 F1800.000 E4.08736
G1 X70.307 Y121.441 F7800.000
G1 X74.365 Y125.498 F1800.000 E4.19088
G1 X74.429 Y124.599 F7800.000
G1 X69.819 Y119.990 F1800.000 E4.30849
G1 X69.723 Y118.931 F7800.000
G1 X74.725 Y123.933 F1800.000 E4.43612
G1 X75.022 Y123.267 F7800.000
G1 X70.686 Y118.931 F1800.000 E4.54675
G1 X71.649 Y118.931 F7800.000
G1 X75.318 Y122.600 F1800.000 E4.64037
G1 X75.806 Y122.125 F7800.000
G1 X72.612 Y118.931 F1800.000 E4.72186
G1 X73.575 Y118.931 F7800.000
G1 X76.313 Y121.668 F1800.000 E4.79172
G1 X76.820 Y121.212 F7800.000
G1 X74.539 Y118.931 F1800.000 E4.84994
G1 X75.502 Y118.931 F7800.000
G1 X77.409 Y120.838 F1800.000 E4.89860
G1 X78.136 Y120.601 F7800.000
G1 X76.465 Y118.931 F1800.000 E4.94123
G1 X77.428 Y118.931 F7800.000
G1 X78.862 Y120.365 F1800.000 E4.97783
G1 X79.665 Y120.205 F7800.000
G1 X78.391 Y118.931 F1800.000 E5.01034
G1 X79.354 Y118.931 F7800.000
G1 X80.741 Y120.318 F1800.000 E5.04574
G1 X81.817 Y120.430 F7800.000
G1 X80.317 Y118.931 F1800.000 E5.08401
G1 X81.280 Y118.931 F7800.000
G1 X98.019 Y135.670 F1800.000 E5.51111
G1 X98.983 Y135.670 F7800.000
G1 X82.243 Y118.931 F1800.000 E5.93820
G1 X83.206 Y118.931 F7800.000
G1 X99.946 Y135.670 F1800.000 E6.36530
G1 X100.909 Y135.670 F7800.000
G1 X84.169 Y118.931 F1800.000 E6.79240
G1 X85.132 Y118.931 F7800.000
G1 X101.872 Y135.670 F1800.000 E7.21949
G1 X102.835 Y135.670 F7800.000
G1 X86.095 Y118.931 F1800.000 E7.64659
G1 X87.059 Y118.931 F7800.000
G1 X103.798 Y135.670 F1800.000 E8.07369
G1 X104.761 Y135.670 F7800.000
G1 X88.022 Y118.931 F1800.000 E8.50079
G1 X88.985 Y118.931 F7800.000
G1 X105.724 Y135.670 F1800.000 E8.92788
G1 X106.687 Y135.670 F7800.000
G1 X89.948 Y118.931 F1800.000 E9.35498
G1 X90.911 Y118.931 F7800.000
G1 X107.650 Y135.670 F1800.000 E9.78208
G1 X108.613 Y135.670 F7800.000
G1 X91.874 Y118.931 F1800.000 E10.20918
G1 X92.837 Y118.931 F7800.000
G1 X109.576 Y135.670 F1800.000 E10.63627
G1 X110.539 Y135.670 F7800.000
G1 X93.800 Y118.931 F1800.000 E11.06337
G1 X94.763 Y118.931 F7800.000
G1 X111.503 Y135.670 F1800.000 E11.49047
G1 X112.466 Y135.670 F7800.000
G1 X95.726 Y118.931 F1800.000 E11.91757
G1 X96.690 Y118.931 F7800.000
G1 X113.429 Y135.670 F1800.000 E12.34464
G1 X114.392 Y135.669 F7800.000
G1 X97.654 Y118.931 F1800.000 E12.77172
G1 X98.617 Y118.931 F7800.000
G1 X115.356 Y135.669 F1800.000 E13.19880
G1 X116.319 Y135.669 F7800.000
G1 X99.580 Y118.931 F1800.000 E13.62588
