; generated by Slic3r 0.7.2b on 2012-04-27 at 15:06:40

; layer_height = 0.2
; perimeters = 1
; solid_layers = 2
; fill_density = 0.4
; nozzle_diameter = 0.5
; filament_diameter = 3
; extrusion_multiplier = 0.92
; perimeter_speed = 60
; infill_speed = 100
; travel_speed = 130
; extrusion_width_ratio = 0
; scale = 1
; single wall width = 0.70mm

M104 S225 ; set temperature
;G28 ; home all axes
M109 S225 ; wait for temperature to be reached
G90 ; use absolute coordinates
G21 ; set units to millimeters
G92 E0 ; reset extrusion distance
M82 ; use absolute distances for extrusion
G1 Z0.200 F7800.000
G1 X30.588 Y21.980
G1 F1800.000 E1.00000
G1 X30.668 Y21.740 F1080.000 E1.00433
G1 X30.768 Y21.490 E1.00893
G1 X31.118 Y20.800 E1.02217
G1 X31.258 Y20.580 E1.02663
G1 X31.558 Y20.160 E1.03545
G1 X31.718 Y19.960 E1.03984
G1 X31.898 Y19.760 E1.04444
G1 X32.458 Y19.230 E1.05763
G1 X33.088 Y18.770 E1.07097
G1 X33.308 Y18.640 E1.07534
G1 X33.778 Y18.400 E1.08437
G1 X34.008 Y18.300 E1.08865
G1 X34.498 Y18.120 E1.09758
G1 X34.998 Y17.990 E1.10642
G1 X35.508 Y17.900 E1.11528
G1 X35.768 Y17.870 E1.11975
G1 X36.288 Y17.850 E1.12866
G1 X95.118 Y17.870 E2.13490
G1 X95.638 Y17.940 E2.14387
G1 X95.898 Y17.990 E2.14840
G1 X96.408 Y18.130 E2.15745
G1 X96.908 Y18.310 E2.16654
G1 X97.378 Y18.540 E2.17549
G1 X98.058 Y18.950 E2.18907
G1 X98.478 Y19.280 E2.19820
G1 X98.668 Y19.450 E2.20256
G1 X99.218 Y20.030 E2.21623
G1 X99.678 Y20.670 E2.22972
G1 X130.558 Y81.380 E3.39472
G1 X130.768 Y81.910 E3.40447
G1 X130.978 Y82.720 E3.41879
G1 X135.028 Y111.000 E3.90743
G1 X135.088 Y111.850 E3.92200
G1 X135.078 Y123.940 E4.12879
G1 X135.028 Y124.500 E4.13841
G1 X134.848 Y125.340 E4.15310
G1 X129.558 Y138.610 E4.39745
G1 X129.328 Y139.070 E4.40624
G1 X129.068 Y139.500 E4.41484
G1 X128.918 Y139.710 E4.41925
G1 X128.598 Y140.110 E4.42801
G1 X128.428 Y140.300 E4.43238
G1 X128.248 Y140.480 E4.43673
G1 X128.058 Y140.650 E4.44109
G1 X127.658 Y140.970 E4.44985
G1 X127.238 Y141.260 E4.45858
G1 X127.018 Y141.390 E4.46295
G1 X126.558 Y141.620 E4.47175
G1 X126.088 Y141.810 E4.48042
G1 X125.598 Y141.960 E4.48919
G1 X124.848 Y142.100 E4.50223
G1 X124.598 Y142.130 E4.50654
G1 X124.088 Y142.150 E4.51527
G1 X37.188 Y142.130 E6.00163
G1 X36.688 Y142.070 E6.01024
G1 X36.188 Y141.960 E6.01900
G1 X35.468 Y141.730 E6.03193
G1 X35.008 Y141.520 E6.04058
G1 X34.568 Y141.280 E6.04915
G1 X34.148 Y141.000 E6.05778
G1 X33.568 Y140.510 E6.07077
G1 X33.388 Y140.340 E6.07500
G1 X32.898 Y139.760 E6.08799
G1 X32.748 Y139.560 E6.09227
G1 X32.608 Y139.350 E6.09658
G1 X32.358 Y138.910 E6.10524
G1 X32.148 Y138.450 E6.11389
G1 X31.898 Y137.740 E6.12676
G1 X31.788 Y137.250 E6.13535
G1 X27.698 Y108.530 E6.63154
G1 X25.688 Y76.650 E7.17791
G1 X26.198 Y35.950 E7.87411
G1 X26.268 Y35.350 E7.88444
G1 X26.398 Y34.770 E7.89460
G1 X30.555 Y22.080 E8.12301
G1 F1800.000 E7.12301
G92 E0
G1 X77.288 Y121.327 F7800.000
G1 F1800.000 E1.00000
G1 X79.308 Y120.670 F1080.000 E1.03633
G1 X81.420 Y120.892 E1.07266
G1 X83.260 Y121.954 E1.10899
G1 X84.508 Y123.672 E1.14531
G1 X84.950 Y125.750 E1.18164
G1 X84.508 Y127.828 E1.21797
G1 X83.260 Y129.546 E1.25430
G1 X81.420 Y130.608 E1.29063
G1 X79.308 Y130.830 E1.32696
G1 X77.288 Y130.173 E1.36328
G1 X75.710 Y128.752 E1.39961
G1 X74.846 Y126.812 E1.43594
G1 X74.846 Y124.688 E1.47227
G1 X75.710 Y122.748 E1.50860
G1 X77.210 Y121.397 E1.54313
G1 F1800.000 E0.54313
G92 E0
G1 X69.975 Y122.190 F7800.000
G1 F1800.000 E1.00000
G1 X69.330 Y120.273 F1080.000 E1.03459
G1 X68.287 Y118.540 E1.06918
G1 X68.201 Y118.450 E1.07131
G1 X126.792 Y118.450 E2.07345
G1 X126.792 Y116.150 E2.11279
G1 X65.536 Y116.150 E3.16053
G1 X65.222 Y115.937 E3.16701
G1 X63.344 Y115.189 E3.20160
G1 X61.348 Y114.862 E3.23619
G1 X59.329 Y114.971 E3.27078
G1 X57.380 Y115.512 E3.30537
G1 X56.177 Y116.150 E3.32866
G1 X41.792 Y116.150 E3.57471
G1 X41.792 Y111.850 E3.64826
G1 X129.092 Y111.850 E5.14145
G1 X129.092 Y123.650 E5.34328
G1 X124.092 Y123.650 E5.42881
G1 X124.092 Y136.150 E5.64261
G1 X38.792 Y136.150 E7.10160
G1 X38.792 Y124.350 E7.30343
G1 X41.792 Y124.350 E7.35474
G1 X41.792 Y118.450 E7.45566
G1 X53.534 Y118.450 E7.65650
G1 X52.829 Y119.379 E7.67645
G1 X51.979 Y121.214 E7.71104
G1 X51.545 Y123.189 E7.74563
G1 X51.545 Y125.211 E7.78022
G1 X51.979 Y127.186 E7.81481
G1 X52.829 Y129.022 E7.84940
G1 X54.052 Y130.631 E7.88399
G1 X55.594 Y131.941 E7.91858
G1 X57.380 Y132.888 E7.95317
G1 X59.329 Y133.429 E7.98776
G1 X61.348 Y133.538 E8.02235
G1 X63.344 Y133.211 E8.05694
G1 X65.222 Y132.463 E8.09152
G1 X66.896 Y131.328 E8.12611
G1 X68.287 Y129.860 E8.16070
G1 X69.330 Y128.127 E8.19529
G1 X69.975 Y126.210 E8.22988
G1 X70.194 Y124.200 E8.26447
G1 X69.987 Y122.294 E8.29726
G1 F1800.000 E7.29726
G92 E0
G1 X92.911 Y99.921 F7800.000
G1 F1800.000 E1.00000
G1 X91.734 Y98.089 F1080.000 E1.03725
G1 X91.734 Y95.911 E1.07449
G1 X92.911 Y94.079 E1.11174
G1 X94.892 Y93.175 E1.14899
G1 X97.047 Y93.484 E1.18624
G1 X98.693 Y94.911 E1.22348
G1 X99.307 Y97.000 E1.26073
G1 X98.693 Y99.089 E1.29798
G1 X97.047 Y100.516 E1.33522
G1 X94.892 Y100.825 E1.37247
G1 X93.007 Y99.964 E1.40792
G1 F1800.000 E0.40792
G92 E0
G1 X90.992 Y98.700 F7800.000
G1 F1800.000 E1.00000
G1 X90.992 Y90.450 F1080.000 E1.14111
G1 X122.792 Y90.450 E1.68502
G1 X122.792 Y88.150 E1.72436
G1 X37.792 Y88.150 E3.17822
G1 X37.792 Y83.850 E3.25177
G1 X125.092 Y83.850 E4.74497
G1 X125.092 Y95.650 E4.94680
G1 X120.092 Y95.650 E5.03232
G1 X120.092 Y108.150 E5.24612
G1 X34.792 Y108.150 E6.70511
G1 X34.792 Y96.350 E6.90694
G1 X37.792 Y96.350 E6.95826
G1 X37.792 Y90.450 E7.05917
G1 X70.292 Y90.450 E7.61506
G1 X70.292 Y98.700 E7.75617
G1 X90.887 Y98.700 E8.10843
G1 F1800.000 E7.10843
G92 E0
G1 X89.092 Y76.650 F7800.000
G1 F1800.000 E1.00000
G1 X32.792 Y76.650 F1080.000 E1.96297
G1 X32.792 Y64.850 E2.16480
G1 X35.792 Y64.850 E2.21611
G1 X35.792 Y58.950 E2.31703
G1 X75.942 Y58.950 E3.00376
G1 X75.942 Y63.800 E3.08672
G1 X89.642 Y63.800 E3.32104
G1 X89.642 Y58.950 E3.40400
G1 X91.792 Y58.950 E3.44077
G1 X91.792 Y56.650 E3.48011
G1 X89.642 Y56.650 E3.51689
G1 X89.642 Y54.100 E3.56050
G1 X75.942 Y54.100 E3.79483
G1 X75.942 Y56.650 E3.83845
G1 X73.542 Y56.650 E3.87950
G1 X73.542 Y52.700 E3.94706
G1 X46.842 Y52.700 E4.40374
G1 X46.842 Y56.650 E4.47130
G1 X35.792 Y56.650 E4.66030
G1 X35.792 Y52.350 E4.73385
G1 X94.092 Y52.350 E5.73103
G1 X94.092 Y64.150 E5.93286
G1 X89.092 Y64.150 E6.01838
G1 X89.092 Y76.545 E6.23039
G1 F1800.000 E5.23039
G92 E0
G1 X89.592 Y48.150 F7800.000
G1 F1800.000 E1.00000
G1 X33.292 Y48.150 F1080.000 E1.96297
G1 X33.292 Y36.350 E2.16480
G1 X36.292 Y36.350 E2.21611
G1 X36.292 Y30.450 E2.31703
G1 X36.312 Y30.450 E2.31737
G1 X36.312 Y43.830 E2.54622
G1 X54.012 Y43.830 E2.84897
G1 X54.012 Y30.450 E3.07782
G1 X58.592 Y30.450 E3.15616
G1 X58.592 Y46.590 E3.43222
G1 X74.292 Y46.590 E3.70076
G1 X74.292 Y30.450 E3.97682
G1 X92.292 Y30.450 E4.28470
G1 X92.292 Y28.150 E4.32404
G1 X36.292 Y28.150 E5.28187
G1 X36.292 Y23.850 E5.35542
G1 X94.592 Y23.850 E6.35260
G1 X94.592 Y35.650 E6.55443
G1 X89.592 Y35.650 E6.63995
G1 X89.592 Y48.045 E6.85195
G1 F1800.000 E5.85195
G92 E0
G1 X59.465 Y30.237 F7800.000
G1 F1800.000 E1.00000
G1 X73.767 Y30.172 F1080.000 E1.24463
G1 F1800.000 E0.24463
G92 E0
G1 X65.577 Y113.886 F7800.000
G1 F1800.000 E1.00000
G1 X127.055 Y113.886 F1800.000 E2.05287
G1 X127.055 Y114.114 E2.05676
G1 X66.147 Y114.114 E3.09986
G1 X65.674 Y113.925 E3.10858
G1 X65.953 Y114.793 F7800.000
G1 X65.862 Y114.731 F1800.000 E3.11046
G1 X63.709 Y113.873 E3.15014
G1 X61.422 Y113.498 E3.18983
G1 X59.108 Y113.624 E3.22952
G1 X56.875 Y114.244 E3.26921
G1 X55.840 Y114.793 E3.28928
G1 X43.149 Y114.793 E3.50661
G1 X43.149 Y113.207 E3.53376
G1 X127.734 Y113.207 E4.98234
G1 X127.734 Y114.793 E5.00949
G1 X66.058 Y114.793 E6.06575
G1 F1800.000 E5.06575
G92 E0
G1 X72.804 Y122.597 F7800.000
G1 F1800.000 E1.00000
G1 X73.442 Y121.165 F1800.000 E1.02684
G1 X72.496 Y121.165 E1.04305
G1 X72.643 Y121.602 E1.05095
G1 X72.761 Y122.693 E1.06974
G1 X70.876 Y124.200 F7800.000
G1 X70.642 Y122.043 F1800.000 E1.10690
G1 X69.949 Y119.987 E1.14406
G1 X69.538 Y119.304 E1.15771
G1 X69.538 Y119.304 E1.15771
G1 X69.433 Y119.129 E1.16121
G1 X69.433 Y119.129 E1.16121
G1 X69.637 Y119.129 E1.16470
G1 X69.637 Y119.129 E1.16471
G1 X127.470 Y119.129 E2.15515
G1 X127.470 Y115.471 E2.21778
G1 X65.744 Y115.471 E3.27488
G1 X65.542 Y115.334 E3.27907
G1 X63.526 Y114.531 E3.31623
G1 X61.385 Y114.180 E3.35339
G1 X59.219 Y114.298 E3.39055
G1 X57.128 Y114.878 E3.42771
G1 X56.009 Y115.471 E3.44940
G1 X42.470 Y115.471 E3.68126
G1 X42.470 Y112.529 E3.73166
G1 X128.413 Y112.529 E5.20350
G1 X128.413 Y122.971 E5.38234
G1 X123.413 Y122.971 E5.46797
G1 X123.413 Y135.471 E5.68204
G1 X39.470 Y135.471 E7.11963
G1 X39.470 Y125.029 E7.29847
G1 X42.470 Y125.029 E7.34985
G1 X42.470 Y119.129 E7.45089
G1 X52.197 Y119.129 E7.61746
G1 X51.333 Y120.996 E7.65270
G1 X50.866 Y123.115 E7.68986
G1 X50.866 Y125.285 E7.72702
G1 X51.333 Y127.404 E7.76418
G1 X52.244 Y129.373 E7.80134
G1 X53.557 Y131.101 E7.83850
G1 X55.211 Y132.506 E7.87566
G1 X57.128 Y133.522 E7.91282
G1 X59.219 Y134.102 E7.94998
G1 X61.385 Y134.220 E7.98715
G1 X63.526 Y133.869 E8.02431
G1 X65.542 Y133.066 E8.06147
G1 X67.338 Y131.848 E8.09863
G1 X68.830 Y130.273 E8.13579
G1 X69.949 Y128.413 E8.17295
G1 X70.642 Y126.357 E8.21011
G1 X70.865 Y124.304 E8.24547
G1 F1800.000 E7.24547
G92 E0
G1 X71.707 Y132.077 F7800.000
G1 F1800.000 E1.00000
G1 X72.295 Y131.098 F1800.000 E1.01955
G1 X72.341 Y131.200 E1.02146
G1 X73.314 Y132.077 E1.04390
G1 X71.812 Y132.077 E1.06963
G1 X70.324 Y132.756 F7800.000
G1 X75.083 Y132.756 F1800.000 E1.15113
G1 X72.902 Y130.792 E1.20138
G1 X72.386 Y129.632 E1.22314
G1 X71.005 Y131.926 E1.26899
G1 X70.219 Y132.756 E1.28856
G1 X68.733 Y133.435 F7800.000
G1 X78.537 Y133.435 F1800.000 E1.45648
G1 X75.900 Y132.578 E1.50397
G1 X73.464 Y130.384 E1.56011
G1 X72.309 Y127.790 E1.60875
G1 X71.809 Y129.274 E1.63557
G1 X70.461 Y131.513 E1.68032
G1 X68.665 Y133.410 E1.72507
G1 X68.628 Y133.435 E1.72583
G1 X66.521 Y134.114 F7800.000
G1 X122.055 Y134.114 F1800.000 E2.67690
G1 X122.055 Y121.614 E2.89097
G1 X127.055 Y121.614 E2.97660
G1 X127.055 Y120.486 E2.99590
G1 X84.710 Y120.486 E3.72109
G1 X86.410 Y122.826 E3.77061
G1 X87.032 Y125.750 E3.82181
G1 X86.410 Y128.674 E3.87301
G1 X84.653 Y131.093 E3.92421
G1 X82.064 Y132.588 E3.97541
G1 X79.090 Y132.900 E4.02661
G1 X76.247 Y131.976 E4.07781
G1 X74.025 Y129.976 E4.12901
G1 X72.809 Y127.245 E4.18021
G1 X72.809 Y124.255 E4.23141
G1 X74.025 Y121.524 E4.28261
G1 X75.178 Y120.486 E4.30917
G1 X71.550 Y120.486 E4.37129
G1 X71.976 Y121.749 E4.39411
G1 X72.242 Y124.200 E4.43633
G1 X71.976 Y126.651 E4.47854
G1 X71.189 Y128.987 E4.52076
G1 X69.918 Y131.099 E4.56298
G1 X68.222 Y132.889 E4.60520
G1 X66.416 Y134.114 E4.64257
G1 X62.194 Y134.793 F7800.000
G1 X122.734 Y134.793 F1800.000 E5.67938
G1 X122.734 Y122.293 E5.89345
G1 X127.734 Y122.293 E5.97908
G1 X127.734 Y119.807 E6.02164
G1 X82.256 Y119.807 E6.80048
G1 X84.188 Y120.923 E6.83869
G1 X85.776 Y123.108 E6.88494
G1 X86.338 Y125.750 E6.93120
G1 X85.776 Y128.392 E6.97746
G1 X84.188 Y130.577 E7.02371
G1 X81.849 Y131.928 E7.06997
G1 X79.163 Y132.210 E7.11623
G1 X76.594 Y131.375 E7.16249
G1 X74.587 Y129.568 E7.20874
G1 X73.488 Y127.101 E7.25500
G1 X73.488 Y124.399 E7.30126
G1 X74.587 Y121.932 E7.34752
G1 X76.594 Y120.125 E7.39377
G1 X77.570 Y119.807 E7.41135
G1 X70.605 Y119.807 E7.53063
G1 X71.309 Y121.896 E7.56838
G1 X71.559 Y124.200 E7.60806
G1 X71.309 Y126.504 E7.64775
G1 X70.569 Y128.700 E7.68744
G1 X69.374 Y130.686 E7.72713
G1 X67.780 Y132.369 E7.76682
G1 X65.862 Y133.669 E7.80651
G1 X63.709 Y134.527 E7.84620
G1 X62.089 Y134.793 E7.87432
G1 X59.407 Y134.793 F7800.000
G1 X40.149 Y134.793 F1800.000 E8.20413
G1 X40.149 Y125.707 E8.35971
G1 X43.149 Y125.707 E8.41109
G1 X43.149 Y119.807 E8.51213
G1 X51.134 Y119.807 E8.64888
G1 X50.685 Y120.778 E8.66719
G1 X50.187 Y123.041 E8.70688
G1 X50.187 Y125.359 E8.74657
G1 X50.685 Y127.622 E8.78626
G1 X51.658 Y129.725 E8.82595
G1 X53.061 Y131.570 E8.86564
G1 X54.827 Y133.071 E8.90533
G1 X56.875 Y134.156 E8.94502
G1 X59.108 Y134.776 E8.98471
G1 X59.302 Y134.787 E8.98804
G1 F1800.000 E7.98804
G92 E0
G1 X51.403 Y132.756 F7800.000
G1 F1800.000 E1.00000
G1 X42.186 Y132.756 F1800.000 E1.15785
G1 X42.186 Y127.744 E1.24367
G1 X45.186 Y127.744 E1.29505
G1 X45.186 Y121.844 E1.39609
G1 X48.365 Y121.844 E1.45053
G1 X48.150 Y122.820 E1.46764
G1 X48.150 Y125.580 E1.51491
G1 X48.744 Y128.276 E1.56219
G1 X49.903 Y130.782 E1.60947
G1 X51.340 Y132.672 E1.65013
G1 X50.034 Y132.077 F7800.000
G1 X42.865 Y132.077 F1800.000 E1.77291
G1 X42.865 Y128.423 E1.83548
G1 X45.865 Y128.423 E1.88686
G1 X45.865 Y122.523 E1.98790
G1 X47.520 Y122.523 E2.01625
G1 X47.471 Y122.746 E2.02015
G1 X47.471 Y125.654 E2.06995
G1 X48.097 Y128.494 E2.11976
G1 X49.318 Y131.134 E2.16957
G1 X49.971 Y131.993 E2.18805
G1 X48.692 Y131.398 F7800.000
G1 X43.544 Y131.398 F1800.000 E2.27621
G1 X43.544 Y129.102 E2.31552
G1 X46.544 Y129.102 E2.36690
G1 X46.544 Y123.202 E2.46794
G1 X46.792 Y123.202 E2.47219
G1 X46.792 Y125.728 E2.51545
G1 X47.449 Y128.712 E2.56778
G1 X48.648 Y131.302 E2.61666
G1 X47.629 Y130.719 F7800.000
G1 X44.223 Y130.719 F1800.000 E2.67499
G1 X44.223 Y129.781 E2.69105
G1 X47.196 Y129.781 E2.74196
G1 X47.585 Y130.624 E2.75785
G1 F1800.000 E1.75785
G92 E0
G1 X49.105 Y121.165 F7800.000
G1 F1800.000 E1.00000
G1 X44.507 Y121.165 F1800.000 E1.07873
G1 X44.507 Y127.065 E1.17978
G1 X41.507 Y127.065 E1.23115
G1 X41.507 Y133.435 E1.34023
G1 X53.158 Y133.435 E1.53976
G1 X52.069 Y132.510 E1.56423
G1 X50.488 Y130.430 E1.60897
G1 X49.391 Y128.058 E1.65372
G1 X48.829 Y125.506 E1.69847
G1 X48.829 Y122.894 E1.74322
G1 X49.210 Y121.165 E1.77352
G1 X49.967 Y120.486 F7800.000
G1 X43.828 Y120.486 F1800.000 E1.87865
G1 X43.828 Y126.386 E1.97970
G1 X40.828 Y126.386 E2.03107
G1 X40.828 Y134.114 E2.16341
G1 X55.345 Y134.114 E2.41201
G1 X54.444 Y133.636 E2.42947
G1 X52.565 Y132.040 E2.47169
G1 X51.073 Y130.078 E2.51391
G1 X50.038 Y127.840 E2.55613
G1 X49.508 Y125.433 E2.59835
G1 X49.508 Y122.967 E2.64057
G1 X50.038 Y120.560 E2.68278
G1 X50.072 Y120.486 E2.68417
G1 F1800.000 E1.68417
G92 E0
G1 X55.671 Y114.114 F7800.000
G1 F1800.000 E1.00000
G1 X43.828 Y114.114 F1800.000 E1.20281
G1 X43.828 Y113.886 E1.20670
G1 X56.099 Y113.886 E1.41685
G1 X55.764 Y114.064 E1.42336
G1 F1800.000 E0.42336
G92 E0
G1 X80.503 Y133.435 F7800.000
G1 F1800.000 E1.00000
G1 X82.278 Y133.248 F1800.000 E1.03057
G1 X85.117 Y131.609 E1.08672
G1 X87.044 Y128.957 E1.14286
G1 X87.726 Y125.750 E1.19900
G1 X87.044 Y122.543 E1.25515
G1 X86.043 Y121.165 E1.28432
G1 X121.377 Y121.165 E1.88943
G1 X121.377 Y133.435 E2.09955
G1 X80.608 Y133.435 E2.79775
G1 X84.489 Y132.756 F7800.000
G1 X85.582 Y132.125 F1800.000 E2.81936
G1 X87.678 Y129.239 E2.88045
G1 X88.420 Y125.750 E2.94154
G1 X87.678 Y122.261 E3.00262
G1 X87.375 Y121.844 E3.01144
G1 X120.698 Y121.844 E3.58211
G1 X120.698 Y132.756 E3.76897
G1 X84.594 Y132.756 E4.38728
G1 X86.456 Y132.077 F7800.000
G1 X88.312 Y129.521 F1800.000 E4.44137
G1 X89.114 Y125.750 E4.50740
G1 X88.428 Y122.523 E4.56390
G1 X120.019 Y122.523 E5.10491
G1 X120.019 Y132.077 E5.26852
G1 X86.561 Y132.077 E5.84151
G1 X87.788 Y131.398 F7800.000
G1 X88.946 Y129.804 F1800.000 E5.87526
G1 X89.808 Y125.750 E5.94623
G1 X89.267 Y123.202 E5.99084
G1 X119.340 Y123.202 E6.50586
G1 X119.340 Y131.398 E6.64622
G1 X87.893 Y131.398 E7.18476
G1 X89.121 Y130.719 F7800.000
G1 X89.581 Y130.086 F1800.000 E7.19816
G1 X90.502 Y125.750 E7.27407
G1 X90.105 Y123.881 E7.30679
G1 X118.661 Y123.881 E7.79583
G1 X118.661 Y130.719 E7.91293
G1 X89.226 Y130.719 E8.41703
G1 X90.284 Y130.040 F7800.000
G1 X91.196 Y125.750 F1800.000 E8.49214
G1 X90.943 Y124.560 E8.51297
G1 X117.982 Y124.560 E8.97602
G1 X117.982 Y130.040 E9.06986
G1 X90.389 Y130.040 E9.54240
G1 X91.123 Y129.361 F7800.000
G1 X91.891 Y125.750 F1800.000 E9.60562
G1 X91.782 Y125.239 E9.61457
G1 X117.303 Y125.239 E10.05163
G1 X117.303 Y129.361 E10.12222
G1 X91.228 Y129.361 E10.56878
G1 X91.961 Y128.682 F7800.000
G1 X92.549 Y125.918 F1800.000 E10.61717
G1 X116.624 Y125.918 E11.02947
