; generated by Slic3r 0.7.2b on 2012-04-29 at 17:39:24

; layer_height = 0.2
; perimeters = 2
; solid_layers = 3
; fill_density = 0.5
; nozzle_diameter = 0.5
; filament_diameter = 3
; extrusion_multiplier = 0.93
; perimeter_speed = 60
; infill_speed = 100
; travel_speed = 130
; extrusion_width_ratio = 0
; scale = 1
; single wall width = 0.70mm

M104 S225 ; set temperature
;G28 ; home all axes
M109 S225 ; wait for temperature to be reached
G90 ; use absolute coordinates
G21 ; set units to millimeters
G92 E0 ; reset extrusion distance
M82 ; use absolute distances for extrusion
G1 Z0.200 F7800.000
G1 X47.588 Y65.980
G1 F1800.000 E1.00000
G1 X47.668 Y65.740 F1080.000 E1.00437
G1 X47.768 Y65.490 E1.00903
G1 X48.118 Y64.800 E1.02241
G1 X48.258 Y64.580 E1.02692
G1 X48.558 Y64.160 E1.03584
G1 X48.718 Y63.960 E1.04027
G1 X48.898 Y63.760 E1.04492
G1 X49.458 Y63.230 E1.05825
G1 X50.088 Y62.770 E1.07174
G1 X50.308 Y62.640 E1.07616
G1 X50.778 Y62.400 E1.08528
G1 X51.008 Y62.300 E1.08962
G1 X51.498 Y62.120 E1.09864
G1 X51.998 Y61.990 E1.10758
G1 X52.508 Y61.900 E1.11653
G1 X52.768 Y61.870 E1.12106
G1 X53.288 Y61.850 E1.13005
G1 X112.098 Y61.870 E2.14689
G1 X112.848 Y61.980 E2.15999
G1 X113.348 Y62.110 E2.16893
G1 X113.828 Y62.280 E2.17773
G1 X114.288 Y62.490 E2.18647
G1 X114.518 Y62.610 E2.19096
G1 X114.738 Y62.740 E2.19538
G1 X115.358 Y63.180 E2.20852
G1 X115.738 Y63.520 E2.21734
G1 X115.918 Y63.700 E2.22174
G1 X116.258 Y64.080 E2.23056
G1 X116.698 Y64.700 E2.24370
G1 X116.828 Y64.920 E2.24812
G1 X117.058 Y65.380 E2.25701
G1 X117.248 Y65.850 E2.26578
G1 X117.398 Y66.340 E2.27464
G1 X117.458 Y66.590 E2.27908
G1 X117.568 Y67.340 E2.29219
G1 X117.578 Y79.940 E2.51004
G1 X117.528 Y80.500 E2.51977
G1 X117.348 Y81.340 E2.53462
G1 X112.058 Y94.610 E2.78162
G1 X111.828 Y95.070 E2.79051
G1 X111.568 Y95.500 E2.79920
G1 X111.418 Y95.710 E2.80366
G1 X111.098 Y96.110 E2.81252
G1 X110.928 Y96.300 E2.81693
G1 X110.748 Y96.480 E2.82133
G1 X110.558 Y96.650 E2.82574
G1 X110.158 Y96.970 E2.83459
G1 X109.738 Y97.260 E2.84342
G1 X109.518 Y97.390 E2.84784
G1 X109.058 Y97.620 E2.85673
G1 X108.588 Y97.810 E2.86549
G1 X108.098 Y97.960 E2.87435
G1 X107.348 Y98.100 E2.88754
G1 X107.098 Y98.130 E2.89190
G1 X106.588 Y98.150 E2.90072
G1 X48.678 Y98.130 E3.90199
G1 X47.928 Y98.020 E3.91510
G1 X47.428 Y97.890 E3.92403
G1 X46.948 Y97.720 E3.93284
G1 X46.488 Y97.510 E3.94158
G1 X46.258 Y97.390 E3.94607
G1 X46.038 Y97.260 E3.95049
G1 X45.418 Y96.820 E3.96363
G1 X45.038 Y96.480 E3.97245
G1 X44.858 Y96.300 E3.97685
G1 X44.518 Y95.920 E3.98566
G1 X44.078 Y95.300 E3.99881
G1 X43.948 Y95.080 E4.00323
G1 X43.718 Y94.620 E4.01212
G1 X43.528 Y94.150 E4.02088
G1 X43.378 Y93.660 E4.02975
G1 X43.318 Y93.410 E4.03419
G1 X43.208 Y92.660 E4.04730
G1 X43.198 Y80.030 E4.26567
G1 X43.218 Y79.720 E4.27104
G1 X43.318 Y79.090 E4.28207
G1 X47.555 Y66.080 E4.51865
G1 F1800.000 E3.51865
G92 E0
G1 X53.970 Y75.129 F7800.000
G1 F1800.000 E1.00000
G1 X92.763 Y75.129 F1080.000 E1.67074
G1 X92.763 Y79.979 E1.75459
G1 X105.913 Y79.979 E1.98196
G1 X105.913 Y91.471 E2.18067
G1 X50.970 Y91.471 E3.13064
G1 X50.970 Y81.029 E3.31120
G1 X53.970 Y81.029 E3.36307
G1 X53.970 Y75.234 E3.46327
G1 F1800.000 E2.46327
G92 E0
G1 X53.970 Y71.471 F7800.000
G1 F1800.000 E1.00000
G1 X53.970 Y68.529 F1080.000 E1.05088
G1 X63.663 Y68.529 E1.21848
G1 X63.663 Y71.471 E1.26936
G1 X54.075 Y71.471 E1.43514
G1 F1800.000 E0.43514
G92 E0
G1 X91.720 Y71.471 F7800.000
G1 F1800.000 E1.00000
G1 X91.720 Y68.529 F1080.000 E1.05088
G1 X110.913 Y68.529 E1.38273
G1 X110.913 Y78.971 E1.56329
G1 X107.820 Y78.971 E1.61677
G1 X107.820 Y75.129 E1.68321
G1 X109.970 Y75.129 E1.72039
G1 X109.970 Y71.471 E1.78362
G1 X107.820 Y71.471 E1.82079
G1 X107.820 Y68.921 E1.86488
G1 X92.763 Y68.921 E2.12522
G1 X92.763 Y71.471 E2.16931
G1 X91.825 Y71.471 E2.18553
G1 X91.042 Y72.150 F7800.000
G1 X91.042 Y68.200 F1080.000 E2.25382
G1 X64.342 Y68.200 E2.71547
G1 X64.342 Y72.150 E2.78377
G1 X53.292 Y72.150 E2.97482
G1 X53.292 Y67.850 E3.04917
G1 X111.592 Y67.850 E4.05719
G1 X111.592 Y79.650 E4.26121
G1 X106.592 Y79.650 E4.34766
G1 X106.592 Y92.150 E4.56379
G1 X50.292 Y92.150 E5.53722
G1 X50.292 Y80.350 E5.74125
G1 X53.292 Y80.350 E5.79312
G1 X53.292 Y74.450 E5.89513
G1 X93.442 Y74.450 E6.58933
G1 X93.442 Y79.300 E6.67318
G1 X107.142 Y79.300 E6.91006
G1 X107.142 Y74.450 E6.99392
G1 X109.292 Y74.450 E7.03109
G1 X109.292 Y72.150 E7.07086
G1 X107.142 Y72.150 E7.10803
G1 X107.142 Y69.600 E7.15212
G1 X93.442 Y69.600 E7.38900
G1 X93.442 Y72.150 E7.43309
G1 X91.147 Y72.150 E7.47277
G1 X90.957 Y75.609 F7800.000
G1 X92.283 Y76.935 F1800.000 E7.50543
G1 X92.283 Y77.898 F7800.000
G1 X89.994 Y75.609 F1800.000 E7.56181
G1 X89.031 Y75.609 F7800.000
G1 X92.283 Y78.861 F1800.000 E7.64192
G1 X92.283 Y79.824 F7800.000
G1 X88.068 Y75.609 F1800.000 E7.74574
G1 X87.105 Y75.609 F7800.000
G1 X92.283 Y80.787 F1800.000 E7.87328
G1 X91.955 Y80.459 F7800.000
G1 X102.487 Y90.991 F1800.000 E8.13270
G1 X103.450 Y90.991 F7800.000
G1 X92.918 Y80.459 F1800.000 E8.39212
G1 X93.881 Y80.459 F7800.000
G1 X104.413 Y90.991 F1800.000 E8.65153
G1 X105.376 Y90.991 F7800.000
G1 X94.844 Y80.459 F1800.000 E8.91095
G1 X95.807 Y80.459 F7800.000
G1 X105.433 Y90.085 F1800.000 E9.14805
G1 X105.433 Y89.122 F7800.000
G1 X96.770 Y80.459 F1800.000 E9.36143
G1 X97.733 Y80.459 F7800.000
G1 X105.433 Y88.159 F1800.000 E9.55110
G1 X105.433 Y87.196 F7800.000
G1 X98.696 Y80.459 F1800.000 E9.71704
G1 X99.659 Y80.459 F7800.000
G1 X105.433 Y86.233 F1800.000 E9.85926
G1 X105.433 Y85.270 F7800.000
G1 X100.622 Y80.459 F1800.000 E9.97777
G1 X101.584 Y80.459 F7800.000
G1 X105.432 Y84.307 F1800.000 E10.07255
G1 X105.433 Y83.344 F7800.000
G1 X102.548 Y80.459 F1800.000 E10.14361
G1 X103.511 Y80.459 F7800.000
G1 X105.433 Y82.381 F1800.000 E10.19095
G1 X105.433 Y81.418 F7800.000
G1 X104.474 Y80.459 F1800.000 E10.21457
G1 F1800.000 E9.21457
G92 E0
G1 X101.523 Y90.991 F7800.000
G1 F1800.000 E1.00000
G1 X86.142 Y75.609 F1800.000 E1.37888
G1 X85.179 Y75.609 F7800.000
G1 X100.560 Y90.991 F1800.000 E1.75776
G1 X99.597 Y90.991 F7800.000
G1 X84.216 Y75.609 F1800.000 E2.13663
G1 X83.252 Y75.609 F7800.000
G1 X98.634 Y90.991 F1800.000 E2.51551
G1 X97.671 Y90.991 F7800.000
G1 X82.289 Y75.609 F1800.000 E2.89439
G1 X81.326 Y75.609 F7800.000
G1 X96.708 Y90.991 F1800.000 E3.27327
G1 X95.745 Y90.991 F7800.000
G1 X80.363 Y75.609 F1800.000 E3.65215
G1 X79.400 Y75.609 F7800.000
G1 X94.782 Y90.991 F1800.000 E4.03103
G1 X93.819 Y90.991 F7800.000
G1 X78.437 Y75.609 F1800.000 E4.40990
G1 X77.474 Y75.609 F7800.000
G1 X92.856 Y90.991 F1800.000 E4.78878
G1 X91.893 Y90.991 F7800.000
G1 X76.511 Y75.609 F1800.000 E5.16766
G1 X75.549 Y75.609 F7800.000
G1 X90.931 Y90.991 F1800.000 E5.54654
G1 X89.968 Y90.991 F7800.000
G1 X74.586 Y75.609 F1800.000 E5.92541
G1 X73.623 Y75.609 F7800.000
G1 X89.005 Y90.991 F1800.000 E6.30429
G1 X88.042 Y90.991 F7800.000
G1 X72.660 Y75.609 F1800.000 E6.68317
G1 X71.697 Y75.609 F7800.000
G1 X87.079 Y90.991 F1800.000 E7.06205
G1 X86.115 Y90.991 F7800.000
G1 X70.734 Y75.609 F1800.000 E7.44093
G1 X69.771 Y75.609 F7800.000
G1 X85.152 Y90.991 F1800.000 E7.81981
G1 X84.189 Y90.991 F7800.000
G1 X68.808 Y75.609 F1800.000 E8.19868
G1 X67.844 Y75.609 F7800.000
G1 X83.226 Y90.991 F1800.000 E8.57756
G1 X82.263 Y90.991 F7800.000
G1 X66.881 Y75.609 F1800.000 E8.95644
G1 X65.918 Y75.609 F7800.000
G1 X81.300 Y90.991 F1800.000 E9.33532
G1 X80.337 Y90.991 F7800.000
G1 X64.955 Y75.609 F1800.000 E9.71419
G1 X63.992 Y75.609 F7800.000
G1 X79.374 Y90.991 F1800.000 E10.09307
G1 X78.411 Y90.991 F7800.000
G1 X63.029 Y75.609 F1800.000 E10.47195
G1 X62.066 Y75.609 F7800.000
G1 X77.448 Y90.991 F1800.000 E10.85082
G1 X76.485 Y90.991 F7800.000
G1 X61.103 Y75.609 F1800.000 E11.22970
G1 X60.140 Y75.609 F7800.000
G1 X75.522 Y90.991 F1800.000 E11.60858
G1 X74.559 Y90.991 F7800.000
G1 X59.177 Y75.609 F1800.000 E11.98746
G1 X58.214 Y75.609 F7800.000
G1 X73.596 Y90.991 F1800.000 E12.36634
G1 X72.633 Y90.991 F7800.000
G1 X57.251 Y75.609 F1800.000 E12.74521
G1 X56.289 Y75.609 F7800.000
G1 X71.670 Y90.991 F1800.000 E13.12409
G1 X70.707 Y90.991 F7800.000
G1 X55.326 Y75.609 F1800.000 E13.50297
G1 X54.451 Y75.697 F7800.000
G1 X69.744 Y90.991 F1800.000 E13.87966
G1 X68.781 Y90.991 F7800.000
G1 X54.451 Y76.660 F1800.000 E14.23264
G1 X54.451 Y77.624 F7800.000
G1 X67.818 Y90.991 F1800.000 E14.56189
G1 X66.855 Y90.991 F7800.000
G1 X54.451 Y78.587 F1800.000 E14.86742
G1 X54.451 Y79.550 F7800.000
G1 X65.892 Y90.991 F1800.000 E15.14924
G1 X64.929 Y90.991 F7800.000
G1 X54.451 Y80.513 F1800.000 E15.40733
G1 X54.451 Y81.476 F7800.000
G1 X63.966 Y90.991 F1800.000 E15.64170
G1 X63.003 Y90.991 F7800.000
G1 X53.521 Y81.509 F1800.000 E15.87525
G1 X52.558 Y81.509 F7800.000
G1 X62.040 Y90.991 F1800.000 E16.10881
G1 X61.077 Y90.991 F7800.000
G1 X51.595 Y81.509 F1800.000 E16.34236
G1 X51.451 Y82.328 F7800.000
G1 X60.114 Y90.991 F1800.000 E16.55574
G1 X59.151 Y90.991 F7800.000
G1 X51.451 Y83.291 F1800.000 E16.74541
G1 X51.451 Y84.254 F7800.000
G1 X58.188 Y90.991 F1800.000 E16.91135
G1 X57.225 Y90.991 F7800.000
G1 X51.451 Y85.217 F1800.000 E17.05357
G1 X51.451 Y86.180 F7800.000
G1 X56.262 Y90.991 F1800.000 E17.17208
G1 X55.299 Y90.991 F7800.000
G1 X51.451 Y87.143 F1800.000 E17.26686
G1 X51.451 Y88.106 F7800.000
G1 X54.336 Y90.991 F1800.000 E17.33792
G1 X53.373 Y90.991 F7800.000
G1 X51.451 Y89.069 F1800.000 E17.38526
G1 X51.451 Y90.032 F7800.000
G1 X52.410 Y90.991 F1800.000 E17.40888
G1 F1800.000 E16.40888
G92 E0
G1 X55.421 Y70.991 F7800.000
G1 F1800.000 E1.00000
G1 X54.451 Y70.020 F1800.000 E1.02451
G1 X54.451 Y69.046 F7800.000
G1 X56.396 Y70.991 F1800.000 E1.07362
G1 X57.371 Y70.991 F7800.000
G1 X55.389 Y69.009 F1800.000 E1.12366
G1 X56.364 Y69.009 F7800.000
G1 X58.346 Y70.991 F1800.000 E1.17369
G1 X59.320 Y70.991 F7800.000
G1 X57.339 Y69.009 F1800.000 E1.22373
G1 X58.313 Y69.009 F7800.000
G1 X60.295 Y70.991 F1800.000 E1.27376
G1 X61.270 Y70.991 F7800.000
G1 X59.288 Y69.009 F1800.000 E1.32380
G1 X60.263 Y69.009 F7800.000
G1 X62.245 Y70.991 F1800.000 E1.37384
G1 X63.183 Y70.954 F7800.000
G1 X61.237 Y69.009 F1800.000 E1.42295
G1 X62.212 Y69.009 F7800.000
G1 X63.183 Y69.980 F1800.000 E1.44746
G1 F1800.000 E0.44746
G92 E0
G1 X108.301 Y69.965 F7800.000
G1 F1800.000 E1.00000
G1 X109.327 Y70.991 F1800.000 E1.02893
G1 X110.358 Y70.991 F7800.000
G1 X108.376 Y69.009 F1800.000 E1.08477
G1 X109.407 Y69.009 F7800.000
G1 X110.433 Y70.035 F1800.000 E1.11370
G1 F1800.000 E0.11370
G92 E0
G1 X109.432 Y75.609 F7800.000
G1 F1800.000 E1.00000
G1 X110.433 Y76.609 F1800.000 E1.02682
G1 X110.433 Y77.614 F7800.000
G1 X108.428 Y75.609 F1800.000 E1.08056
G1 X108.301 Y76.486 F7800.000
G1 X110.306 Y78.491 F1800.000 E1.13430
G1 X109.302 Y78.491 F7800.000
G1 X108.301 Y77.490 F1800.000 E1.16111
M140 S60 ; set bed temperature
G1 F1800.000 E0.16111
G92 E0
G1 Z0.400 F7800.000
G1 X105.913 Y79.979
G1 F1800.000 E1.00000
G1 X105.913 Y91.471 F3600.000 E1.19871
G1 X48.494 Y91.471 E2.19150
G1 X48.494 Y81.029 E2.37206
G1 X53.970 Y81.029 E2.46675
G1 X53.970 Y75.129 E2.56876
G1 X92.763 Y75.129 E3.23950
G1 X92.763 Y79.979 E3.32336
G1 X105.808 Y79.979 E3.54891
G1 F1800.000 E2.54891
G92 E0
G1 X63.663 Y71.471 F7800.000
G1 F1800.000 E1.00000
G1 X53.970 Y71.471 F3600.000 E1.16759
G1 X53.970 Y68.529 E1.21848
G1 X63.663 Y68.529 E1.38607
G1 X63.663 Y71.366 E1.43514
G1 F1800.000 E0.43514
G92 E0
G1 X91.720 Y71.471 F7800.000
G1 F1800.000 E1.00000
G1 X91.720 Y68.529 F3600.000 E1.05088
G1 X111.110 Y68.529 E1.38613
G1 X111.110 Y78.971 E1.56669
G1 X107.820 Y78.971 E1.62356
G1 X107.820 Y75.129 E1.69000
G1 X109.970 Y75.129 E1.72717
G1 X109.970 Y71.471 E1.79041
G1 X107.820 Y71.471 E1.82758
G1 X107.820 Y68.921 E1.87167
G1 X92.763 Y68.921 E2.13201
G1 X92.763 Y71.471 E2.17610
G1 X91.825 Y71.471 E2.19232
G1 X91.042 Y72.150 F7800.000
G1 X91.042 Y68.200 F3600.000 E2.26061
G1 X64.342 Y68.200 E2.72226
G1 X64.342 Y72.150 E2.79055
G1 X53.292 Y72.150 E2.98161
G1 X53.292 Y67.850 E3.05596
G1 X111.788 Y67.850 E4.06737
G1 X111.788 Y79.650 E4.27139
G1 X106.592 Y79.650 E4.36124
G1 X106.592 Y92.150 E4.57736
G1 X47.815 Y92.150 E5.59362
G1 X47.815 Y80.350 E5.79764
G1 X53.292 Y80.350 E5.89233
G1 X53.292 Y74.450 E5.99434
G1 X93.442 Y74.450 E6.68854
G1 X93.442 Y79.300 E6.77240
G1 X107.142 Y79.300 E7.00927
G1 X107.142 Y74.450 E7.09313
G1 X109.292 Y74.450 E7.13030
G1 X109.292 Y72.150 E7.17007
G1 X107.142 Y72.150 E7.20724
G1 X107.142 Y69.600 E7.25133
G1 X93.442 Y69.600 E7.48821
G1 X93.442 Y72.150 E7.53230
G1 X91.147 Y72.150 E7.57198
G1 X90.999 Y75.609 F7800.000
G1 X75.618 Y90.991 F6000.000 E7.94996
G1 X74.656 Y90.991 F7800.000
G1 X90.038 Y75.609 F6000.000 E8.32794
G1 X89.076 Y75.609 F7800.000
G1 X73.694 Y90.991 F6000.000 E8.70594
G1 X72.732 Y90.991 F7800.000
G1 X88.114 Y75.609 F6000.000 E9.08394
G1 X87.152 Y75.610 F7800.000
G1 X71.770 Y90.991 F6000.000 E9.46192
G1 X70.808 Y90.991 F7800.000
G1 X86.190 Y75.609 F6000.000 E9.83990
G1 X85.228 Y75.609 F7800.000
G1 X69.846 Y90.991 F6000.000 E10.21789
G1 X68.884 Y90.991 F7800.000
G1 X84.266 Y75.609 F6000.000 E10.59587
G1 X83.305 Y75.609 F7800.000
G1 X67.922 Y90.991 F6000.000 E10.97387
G1 X66.960 Y90.991 F7800.000
G1 X82.342 Y75.610 F6000.000 E11.35185
G1 X81.380 Y75.610 F7800.000
G1 X65.999 Y90.991 F6000.000 E11.72983
G1 X65.036 Y90.991 F7800.000
G1 X80.418 Y75.609 F6000.000 E12.10781
G1 X79.456 Y75.609 F7800.000
G1 X64.075 Y90.991 F6000.000 E12.48580
G1 X63.113 Y90.991 F7800.000
G1 X78.495 Y75.609 F6000.000 E12.86378
G1 X77.533 Y75.609 F7800.000
G1 X62.151 Y90.991 F6000.000 E13.24178
G1 X61.189 Y90.991 F7800.000
G1 X76.571 Y75.610 F6000.000 E13.61976
G1 X75.609 Y75.610 F7800.000
G1 X60.227 Y90.991 F6000.000 E13.99774
G1 X59.265 Y90.991 F7800.000
G1 X74.647 Y75.609 F6000.000 E14.37572
G1 X73.685 Y75.609 F7800.000
G1 X58.303 Y90.991 F6000.000 E14.75370
G1 X57.342 Y90.991 F7800.000
G1 X72.723 Y75.609 F6000.000 E15.13169
G1 X71.762 Y75.609 F7800.000
G1 X56.379 Y90.991 F6000.000 E15.50969
G1 X55.418 Y90.991 F7800.000
G1 X70.799 Y75.610 F6000.000 E15.88767
G1 X69.838 Y75.610 F7800.000
G1 X54.456 Y90.991 F6000.000 E16.26565
G1 X53.494 Y90.991 F7800.000
G1 X68.875 Y75.609 F6000.000 E16.64363
G1 X67.914 Y75.609 F7800.000
G1 X52.532 Y90.991 F6000.000 E17.02161
G1 X51.570 Y90.991 F7800.000
G1 X66.952 Y75.609 F6000.000 E17.39961
G1 X65.990 Y75.609 F7800.000
G1 X50.608 Y90.991 F6000.000 E17.77761
G1 X49.646 Y90.991 F7800.000
G1 X65.028 Y75.610 F6000.000 E18.15559
G1 X64.066 Y75.609 F7800.000
G1 X49.332 Y90.343 F6000.000 E18.51766
G1 X49.332 Y89.381 F7800.000
G1 X63.104 Y75.609 F6000.000 E18.85609
G1 X62.142 Y75.609 F7800.000
G1 X49.332 Y88.420 F6000.000 E19.17089
G1 X49.332 Y87.457 F7800.000
G1 X61.181 Y75.609 F6000.000 E19.46205
G1 X60.218 Y75.610 F7800.000
G1 X54.451 Y81.377 F6000.000 E19.60377
G1 X54.319 Y81.509 F7800.000
G1 X49.332 Y86.495 F6000.000 E19.72630
G1 X49.332 Y85.534 F7800.000
G1 X53.356 Y81.510 F6000.000 E19.82519
G1 X52.394 Y81.509 F7800.000
G1 X49.332 Y84.571 F6000.000 E19.90045
G1 X49.332 Y83.610 F7800.000
G1 X51.432 Y81.509 F6000.000 E19.95207
G1 X50.471 Y81.509 F7800.000
G1 X49.332 Y82.648 F6000.000 E19.98006
G1 F1800.000 E18.98006
G92 E0
G1 X54.451 Y80.415 F7800.000
G1 F1800.000 E1.00000
G1 X59.257 Y75.610 F6000.000 E1.11809
G1 X58.294 Y75.609 F7800.000
G1 X54.450 Y79.453 F6000.000 E1.21254
G1 X54.451 Y78.490 F7800.000
G1 X57.332 Y75.609 F6000.000 E1.28335
G1 X56.371 Y75.609 F7800.000
G1 X54.451 Y77.529 F6000.000 E1.33053
G1 X54.451 Y76.567 F7800.000
G1 X55.409 Y75.609 F6000.000 E1.35407
G1 F1800.000 E0.35407
G92 E0
G1 X76.580 Y90.991 F7800.000
G1 F1800.000 E1.00000
G1 X91.962 Y75.610 F6000.000 E1.37798
G1 X92.283 Y76.249 F7800.000
G1 X77.542 Y90.991 F6000.000 E1.74024
G1 X78.503 Y90.991 F7800.000
G1 X92.283 Y77.212 F6000.000 E2.07885
G1 X92.283 Y78.174 F7800.000
G1 X79.465 Y90.991 F6000.000 E2.39382
G1 X80.427 Y90.991 F7800.000
G1 X92.283 Y79.135 F6000.000 E2.68515
G1 X92.283 Y80.097 F7800.000
G1 X81.389 Y90.991 F6000.000 E2.95285
G1 X82.351 Y90.991 F7800.000
G1 X92.883 Y80.460 F6000.000 E3.21164
G1 X93.845 Y80.460 F7800.000
G1 X83.313 Y90.991 F6000.000 E3.47044
G1 X84.275 Y90.991 F7800.000
