; generated by Slic3r 0.7.2b on 2012-04-29 at 17:30:56

; layer_height = 0.2
; perimeters = 2
; solid_layers = 3
; fill_density = 0.5
; nozzle_diameter = 0.5
; filament_diameter = 3
; extrusion_multiplier = 0.93
; perimeter_speed = 60
; infill_speed = 100
; travel_speed = 130
; extrusion_width_ratio = 0
; scale = 1
; single wall width = 0.70mm

M104 S225 ; set temperature
;G28 ; home all axes
M109 S225 ; wait for temperature to be reached
G90 ; use absolute coordinates
G21 ; set units to millimeters
G92 E0 ; reset extrusion distance
M82 ; use absolute distances for extrusion
G1 Z0.200 F7800.000
G1 X47.588 Y65.980
G1 F1800.000 E1.00000
G1 X47.668 Y65.740 F1080.000 E1.00437
G1 X47.768 Y65.490 E1.00903
G1 X48.118 Y64.800 E1.02241
G1 X48.258 Y64.580 E1.02692
G1 X48.558 Y64.160 E1.03584
G1 X48.718 Y63.960 E1.04027
G1 X48.898 Y63.760 E1.04492
G1 X49.458 Y63.230 E1.05825
G1 X50.088 Y62.770 E1.07174
G1 X50.308 Y62.640 E1.07616
G1 X50.778 Y62.400 E1.08528
G1 X51.008 Y62.300 E1.08962
G1 X51.498 Y62.120 E1.09864
G1 X51.998 Y61.990 E1.10758
G1 X52.508 Y61.900 E1.11653
G1 X52.768 Y61.870 E1.12106
G1 X53.288 Y61.850 E1.13005
G1 X112.098 Y61.870 E2.14689
G1 X112.848 Y61.980 E2.15999
G1 X113.348 Y62.110 E2.16893
G1 X113.828 Y62.280 E2.17773
G1 X114.288 Y62.490 E2.18647
G1 X114.518 Y62.610 E2.19096
G1 X114.738 Y62.740 E2.19538
G1 X115.358 Y63.180 E2.20852
G1 X115.738 Y63.520 E2.21734
G1 X115.918 Y63.700 E2.22174
G1 X116.258 Y64.080 E2.23056
G1 X116.698 Y64.700 E2.24370
G1 X116.828 Y64.920 E2.24812
G1 X117.058 Y65.380 E2.25701
G1 X117.248 Y65.850 E2.26578
G1 X117.398 Y66.340 E2.27464
G1 X117.458 Y66.590 E2.27908
G1 X117.568 Y67.340 E2.29219
G1 X117.578 Y79.940 E2.51004
G1 X117.528 Y80.500 E2.51977
G1 X117.348 Y81.340 E2.53462
G1 X112.058 Y94.610 E2.78162
G1 X111.828 Y95.070 E2.79051
G1 X111.568 Y95.500 E2.79920
G1 X111.418 Y95.710 E2.80366
G1 X111.098 Y96.110 E2.81252
G1 X110.928 Y96.300 E2.81693
G1 X110.748 Y96.480 E2.82133
G1 X110.558 Y96.650 E2.82574
G1 X110.158 Y96.970 E2.83459
G1 X109.738 Y97.260 E2.84342
G1 X109.518 Y97.390 E2.84784
G1 X109.058 Y97.620 E2.85673
G1 X108.588 Y97.810 E2.86549
G1 X108.098 Y97.960 E2.87435
G1 X107.348 Y98.100 E2.88754
G1 X107.098 Y98.130 E2.89190
G1 X106.588 Y98.150 E2.90072
G1 X48.678 Y98.130 E3.90199
G1 X47.928 Y98.020 E3.91510
G1 X47.428 Y97.890 E3.92403
G1 X46.948 Y97.720 E3.93284
G1 X46.488 Y97.510 E3.94158
G1 X46.258 Y97.390 E3.94607
G1 X46.038 Y97.260 E3.95049
G1 X45.418 Y96.820 E3.96363
G1 X45.038 Y96.480 E3.97245
G1 X44.858 Y96.300 E3.97685
G1 X44.518 Y95.920 E3.98566
G1 X44.078 Y95.300 E3.99881
G1 X43.948 Y95.080 E4.00323
G1 X43.718 Y94.620 E4.01212
G1 X43.528 Y94.150 E4.02088
G1 X43.378 Y93.660 E4.02975
G1 X43.318 Y93.410 E4.03419
G1 X43.208 Y92.660 E4.04730
G1 X43.198 Y80.030 E4.26567
G1 X43.218 Y79.720 E4.27104
G1 X43.318 Y79.090 E4.28207
G1 X47.555 Y66.080 E4.51865
G1 F1800.000 E3.51865
G92 E0
G1 X53.970 Y68.529 F7800.000
G1 F1800.000 E1.00000
G1 X110.913 Y68.529 F1080.000 E1.98455
G1 X110.913 Y78.971 E2.16511
G1 X105.913 Y78.971 E2.25156
G1 X105.913 Y91.471 E2.46769
G1 X50.970 Y91.471 E3.41766
G1 X50.970 Y81.029 E3.59822
G1 X52.633 Y81.029 E3.62697
G1 X52.633 Y88.509 E3.75630
G1 X71.690 Y88.509 E4.08580
G1 X71.690 Y75.129 E4.31714
G1 X74.913 Y75.129 E4.37287
G1 X74.913 Y91.269 E4.65193
G1 X91.970 Y91.269 E4.94685
G1 X91.970 Y75.129 E5.22591
G1 X109.970 Y75.129 E5.53714
G1 X109.970 Y71.471 E5.60037
G1 X53.970 Y71.471 E6.56861
G1 X53.970 Y68.634 E6.61768
G1 X53.292 Y67.850 F7800.000
G1 X111.592 Y67.850 F1080.000 E7.62570
G1 X111.592 Y79.650 E7.82972
G1 X106.592 Y79.650 E7.91617
G1 X106.592 Y92.150 E8.13230
G1 X50.292 Y92.150 E9.10573
G1 X50.292 Y80.350 E9.30976
G1 X53.292 Y80.350 E9.36163
G1 X53.292 Y74.450 E9.46364
G1 X53.312 Y74.450 E9.46399
G1 X53.312 Y87.830 E9.69533
G1 X71.012 Y87.830 E10.00136
G1 X71.012 Y74.450 E10.23271
G1 X75.592 Y74.450 E10.31189
G1 X75.592 Y90.590 E10.59096
G1 X91.292 Y90.590 E10.86241
G1 X91.292 Y74.450 E11.14148
G1 X109.292 Y74.450 E11.45270
G1 X109.292 Y72.150 E11.49247
G1 X53.292 Y72.150 E12.46071
G1 X53.292 Y67.955 E12.53325
G1 F1800.000 E11.53325
G92 E0
G1 X76.465 Y74.237 F7800.000
G1 F1800.000 E1.00000
G1 X90.767 Y74.172 F1080.000 E1.24729
G1 F1800.000 E0.24729
G92 E0
G1 X74.433 Y76.589 F7800.000
G1 F1800.000 E1.00000
G1 X73.453 Y75.609 F1800.000 E1.02521
G1 X72.469 Y75.609 F7800.000
G1 X74.433 Y77.573 F1800.000 E1.07574
G1 X74.433 Y78.557 F7800.000
G1 X72.171 Y76.295 F1800.000 E1.13394
G1 X72.171 Y77.278 F7800.000
G1 X74.433 Y79.540 F1800.000 E1.19214
G1 X74.433 Y80.524 F7800.000
G1 X72.171 Y78.263 F1800.000 E1.25034
G1 X72.171 Y79.247 F7800.000
G1 X74.433 Y81.508 F1800.000 E1.30853
G1 X74.433 Y82.493 F7800.000
G1 X72.171 Y80.231 F1800.000 E1.36673
G1 X72.171 Y81.214 F7800.000
G1 X74.433 Y83.476 F1800.000 E1.42493
G1 X74.433 Y84.460 F7800.000
G1 X72.171 Y82.198 F1800.000 E1.48313
G1 X72.171 Y83.182 F7800.000
G1 X74.433 Y85.444 F1800.000 E1.54133
G1 X74.433 Y86.428 F7800.000
G1 X72.171 Y84.166 F1800.000 E1.59953
G1 X72.171 Y85.150 F7800.000
G1 X74.433 Y87.412 F1800.000 E1.65772
G1 X74.433 Y88.396 F7800.000
G1 X72.171 Y86.134 F1800.000 E1.71592
G1 X72.171 Y87.118 F7800.000
G1 X74.433 Y89.380 F1800.000 E1.77412
G1 X74.433 Y90.363 F7800.000
G1 X72.171 Y88.101 F1800.000 E1.83232
G1 X72.075 Y88.989 F7800.000
G1 X74.076 Y90.991 F1800.000 E1.88383
G1 X73.092 Y90.991 F7800.000
G1 X71.090 Y88.989 F1800.000 E1.93534
G1 X70.107 Y88.989 F7800.000
G1 X72.109 Y90.991 F1800.000 E1.98685
G1 X71.125 Y90.991 F7800.000
G1 X69.123 Y88.989 F1800.000 E2.03836
G1 X68.139 Y88.989 F7800.000
G1 X70.141 Y90.991 F1800.000 E2.08986
G1 X69.157 Y90.991 F7800.000
G1 X67.155 Y88.989 F1800.000 E2.14137
G1 X66.171 Y88.989 F7800.000
G1 X68.173 Y90.991 F1800.000 E2.19288
G1 X67.189 Y90.991 F7800.000
G1 X65.187 Y88.989 F1800.000 E2.24439
G1 X64.203 Y88.989 F7800.000
G1 X66.205 Y90.991 F1800.000 E2.29590
G1 X65.222 Y90.991 F7800.000
G1 X63.220 Y88.989 F1800.000 E2.34741
G1 X62.236 Y88.989 F7800.000
G1 X64.238 Y90.991 F1800.000 E2.39891
G1 X63.254 Y90.991 F7800.000
G1 X61.252 Y88.989 F1800.000 E2.45042
G1 X60.268 Y88.989 F7800.000
G1 X62.269 Y90.991 F1800.000 E2.50193
G1 X61.286 Y90.991 F7800.000
G1 X59.284 Y88.989 F1800.000 E2.55344
G1 X58.300 Y88.989 F7800.000
G1 X60.302 Y90.991 F1800.000 E2.60495
G1 X59.318 Y90.991 F7800.000
G1 X57.316 Y88.989 F1800.000 E2.65646
G1 X56.333 Y88.989 F7800.000
G1 X58.335 Y90.991 F1800.000 E2.70797
G1 X57.350 Y90.991 F7800.000
G1 X55.349 Y88.989 F1800.000 E2.75947
G1 X54.364 Y88.989 F7800.000
G1 X56.366 Y90.991 F1800.000 E2.81098
G1 X55.382 Y90.991 F7800.000
G1 X53.380 Y88.989 F1800.000 E2.86249
G1 X52.397 Y88.989 F7800.000
G1 X54.399 Y90.991 F1800.000 E2.91400
G1 X53.415 Y90.991 F7800.000
G1 X51.451 Y89.027 F1800.000 E2.96453
G1 X52.153 Y88.745 F7800.000
G1 X51.451 Y88.043 F1800.000 E2.98259
G1 X52.153 Y87.761 F7800.000
G1 X51.451 Y87.060 F1800.000 E3.00064
G1 X52.153 Y86.777 F7800.000
G1 X51.451 Y86.076 F1800.000 E3.01870
G1 X52.153 Y85.793 F7800.000
G1 X51.451 Y85.091 F1800.000 E3.03676
G1 X52.153 Y84.809 F7800.000
G1 X51.451 Y84.107 F1800.000 E3.05482
G1 X52.153 Y83.826 F7800.000
G1 X51.451 Y83.124 F1800.000 E3.07288
G1 X52.153 Y82.842 F7800.000
G1 X51.451 Y82.140 F1800.000 E3.09094
G1 F1800.000 E2.09094
G92 E0
G1 X51.451 Y90.011 F7800.000
G1 F1800.000 E1.00000
G1 X52.431 Y90.991 F1800.000 E1.02521
G1 F1800.000 E0.02521
G92 E0
G1 X55.413 Y70.991 F7800.000
G1 F1800.000 E1.00000
G1 X54.451 Y70.029 F1800.000 E1.02386
G1 X54.451 Y69.063 F7800.000
G1 X56.379 Y70.991 F1800.000 E1.07168
G1 X57.346 Y70.991 F7800.000
G1 X55.364 Y69.009 F1800.000 E1.12083
G1 X56.330 Y69.009 F7800.000
G1 X58.312 Y70.991 F1800.000 E1.16998
G1 X59.278 Y70.991 F7800.000
G1 X57.296 Y69.009 F1800.000 E1.21912
G1 X58.262 Y69.009 F7800.000
G1 X60.244 Y70.991 F1800.000 E1.26827
G1 X61.210 Y70.991 F7800.000
G1 X59.228 Y69.009 F1800.000 E1.31742
G1 X60.195 Y69.009 F7800.000
G1 X62.177 Y70.991 F1800.000 E1.36657
G1 X63.143 Y70.991 F7800.000
G1 X61.161 Y69.009 F1800.000 E1.41571
G1 X62.127 Y69.009 F7800.000
G1 X64.109 Y70.991 F1800.000 E1.46486
G1 X65.075 Y70.991 F7800.000
G1 X63.093 Y69.009 F1800.000 E1.51401
G1 X64.059 Y69.009 F7800.000
G1 X66.041 Y70.991 F1800.000 E1.56316
G1 X67.008 Y70.991 F7800.000
G1 X65.026 Y69.009 F1800.000 E1.61231
G1 X65.992 Y69.009 F7800.000
G1 X67.974 Y70.991 F1800.000 E1.66146
G1 X68.940 Y70.991 F7800.000
G1 X66.958 Y69.009 F1800.000 E1.71061
G1 X67.924 Y69.009 F7800.000
G1 X69.906 Y70.991 F1800.000 E1.75976
G1 X70.872 Y70.991 F7800.000
G1 X68.890 Y69.009 F1800.000 E1.80890
G1 X69.857 Y69.009 F7800.000
G1 X71.839 Y70.991 F1800.000 E1.85805
G1 X72.805 Y70.991 F7800.000
G1 X70.823 Y69.009 F1800.000 E1.90720
G1 X71.789 Y69.009 F7800.000
G1 X73.771 Y70.991 F1800.000 E1.95635
G1 X74.737 Y70.991 F7800.000
G1 X72.755 Y69.009 F1800.000 E2.00550
G1 X73.721 Y69.009 F7800.000
G1 X75.703 Y70.991 F1800.000 E2.05465
G1 X76.670 Y70.991 F7800.000
G1 X74.688 Y69.009 F1800.000 E2.10380
G1 X75.654 Y69.009 F7800.000
G1 X77.636 Y70.991 F1800.000 E2.15295
G1 X78.602 Y70.991 F7800.000
G1 X76.620 Y69.009 F1800.000 E2.20209
G1 X77.586 Y69.009 F7800.000
G1 X79.568 Y70.991 F1800.000 E2.25124
G1 X80.534 Y70.991 F7800.000
G1 X78.552 Y69.009 F1800.000 E2.30039
G1 X79.519 Y69.009 F7800.000
G1 X81.501 Y70.991 F1800.000 E2.34954
G1 X82.467 Y70.991 F7800.000
G1 X80.485 Y69.009 F1800.000 E2.39868
G1 X81.451 Y69.009 F7800.000
G1 X83.433 Y70.991 F1800.000 E2.44783
G1 X84.399 Y70.991 F7800.000
G1 X82.417 Y69.009 F1800.000 E2.49698
G1 X83.383 Y69.009 F7800.000
G1 X85.365 Y70.991 F1800.000 E2.54613
G1 X86.332 Y70.991 F7800.000
G1 X84.350 Y69.009 F1800.000 E2.59527
G1 X85.316 Y69.009 F7800.000
G1 X87.298 Y70.991 F1800.000 E2.64442
G1 X88.264 Y70.991 F7800.000
G1 X86.282 Y69.009 F1800.000 E2.69357
G1 X87.248 Y69.009 F7800.000
G1 X89.230 Y70.991 F1800.000 E2.74272
G1 X90.197 Y70.991 F7800.000
G1 X88.215 Y69.009 F1800.000 E2.79187
G1 X89.181 Y69.009 F7800.000
G1 X91.163 Y70.991 F1800.000 E2.84101
G1 X92.129 Y70.991 F7800.000
G1 X90.147 Y69.009 F1800.000 E2.89016
G1 X91.113 Y69.009 F7800.000
G1 X93.095 Y70.991 F1800.000 E2.93931
G1 X94.061 Y70.991 F7800.000
G1 X92.079 Y69.009 F1800.000 E2.98846
G1 X93.046 Y69.009 F7800.000
G1 X95.028 Y70.991 F1800.000 E3.03761
G1 X95.994 Y70.991 F7800.000
G1 X94.012 Y69.009 F1800.000 E3.08676
G1 X94.978 Y69.009 F7800.000
G1 X96.960 Y70.991 F1800.000 E3.13591
G1 X97.926 Y70.991 F7800.000
G1 X95.944 Y69.009 F1800.000 E3.18506
G1 X96.910 Y69.009 F7800.000
G1 X98.892 Y70.991 F1800.000 E3.23420
G1 X99.858 Y70.991 F7800.000
G1 X97.877 Y69.009 F1800.000 E3.28335
G1 X98.843 Y69.009 F7800.000
G1 X100.825 Y70.991 F1800.000 E3.33250
G1 X101.791 Y70.991 F7800.000
G1 X99.809 Y69.009 F1800.000 E3.38165
G1 X100.775 Y69.009 F7800.000
G1 X102.757 Y70.991 F1800.000 E3.43080
G1 X103.723 Y70.991 F7800.000
G1 X101.741 Y69.009 F1800.000 E3.47995
G1 X102.708 Y69.009 F7800.000
G1 X104.689 Y70.991 F1800.000 E3.52910
G1 X105.655 Y70.991 F7800.000
G1 X103.674 Y69.009 F1800.000 E3.57825
G1 X104.640 Y69.009 F7800.000
G1 X106.622 Y70.991 F1800.000 E3.62739
G1 X107.588 Y70.991 F7800.000
G1 X105.606 Y69.009 F1800.000 E3.67654
G1 X106.572 Y69.009 F7800.000
G1 X108.554 Y70.991 F1800.000 E3.72569
G1 X109.520 Y70.991 F7800.000
G1 X107.539 Y69.009 F1800.000 E3.77483
G1 X108.505 Y69.009 F7800.000
G1 X110.433 Y70.937 F1800.000 E3.82266
G1 X110.433 Y69.971 F7800.000
G1 X109.471 Y69.009 F1800.000 E3.84652
G1 F1800.000 E2.84652
G92 E0
G1 X109.455 Y75.609 F7800.000
G1 F1800.000 E1.00000
G1 X110.433 Y76.587 F1800.000 E1.02503
G1 X110.433 Y77.568 F7800.000
G1 X108.474 Y75.609 F1800.000 E1.07519
G1 X107.492 Y75.609 F7800.000
G1 X110.374 Y78.491 F1800.000 E1.14898
G1 X109.393 Y78.491 F7800.000
G1 X106.511 Y75.609 F1800.000 E1.22278
G1 X105.529 Y75.609 F7800.000
G1 X108.411 Y78.491 F1800.000 E1.29657
G1 X107.430 Y78.491 F7800.000
G1 X104.548 Y75.609 F1800.000 E1.37036
G1 X103.566 Y75.609 F7800.000
G1 X106.448 Y78.491 F1800.000 E1.44415
G1 X105.467 Y78.491 F7800.000
G1 X102.585 Y75.609 F1800.000 E1.51794
G1 X101.603 Y75.609 F7800.000
G1 X105.433 Y79.439 F1800.000 E1.61600
G1 X105.433 Y80.420 F7800.000
G1 X100.622 Y75.609 F1800.000 E1.73920
G1 X99.640 Y75.609 F7800.000
G1 X105.433 Y81.402 F1800.000 E1.88752
G1 X105.433 Y82.383 F7800.000
G1 X98.659 Y75.609 F1800.000 E2.06098
G1 X97.677 Y75.609 F7800.000
G1 X105.433 Y83.365 F1800.000 E2.25958
G1 X105.433 Y84.346 F7800.000
G1 X96.696 Y75.609 F1800.000 E2.48330
G1 X95.714 Y75.609 F7800.000
G1 X105.433 Y85.328 F1800.000 E2.73215
G1 X105.433 Y86.309 F7800.000
G1 X94.733 Y75.609 F1800.000 E3.00614
G1 X93.751 Y75.609 F7800.000
G1 X105.433 Y87.291 F1800.000 E3.30527
G1 X105.433 Y88.272 F7800.000
G1 X92.770 Y75.609 F1800.000 E3.62952
G1 X92.451 Y76.272 F7800.000
G1 X105.433 Y89.254 F1800.000 E3.96193
G1 X105.432 Y90.236 F7800.000
G1 X92.451 Y77.254 F1800.000 E4.29434
G1 X92.451 Y78.235 F7800.000
G1 X105.206 Y90.991 F1800.000 E4.62096
G1 X104.225 Y90.991 F7800.000
G1 X92.451 Y79.217 F1800.000 E4.92245
G1 X92.451 Y80.198 F7800.000
G1 X103.243 Y90.991 F1800.000 E5.19880
G1 X102.262 Y90.991 F7800.000
G1 X92.451 Y81.180 F1800.000 E5.45002
G1 X92.451 Y82.161 F7800.000
G1 X101.280 Y90.991 F1800.000 E5.67611
G1 X100.299 Y90.991 F7800.000
G1 X92.451 Y83.143 F1800.000 E5.87707
G1 X92.451 Y84.124 F7800.000
G1 X99.317 Y90.991 F1800.000 E6.05289
G1 X98.336 Y90.991 F7800.000
G1 X92.451 Y85.106 F1800.000 E6.20359
G1 X92.451 Y86.087 F7800.000
G1 X97.354 Y90.991 F1800.000 E6.32915
G1 X96.373 Y90.991 F7800.000
G1 X92.451 Y87.069 F1800.000 E6.42957
G1 X92.451 Y88.050 F7800.000
G1 X95.391 Y90.991 F1800.000 E6.50487
G1 X94.410 Y90.991 F7800.000
G1 X92.451 Y89.032 F1800.000 E6.55503
G1 X92.451 Y90.013 F7800.000
G1 X93.429 Y90.991 F1800.000 E6.58006
M140 S60 ; set bed temperature
G1 F1800.000 E5.58006
G92 E0
G1 Z0.400 F7800.000
G1 X91.970 Y91.269
G1 F1800.000 E1.00000
G1 X91.970 Y75.129 F3600.000 E1.27906
G1 X109.970 Y75.129 E1.59029
G1 X109.970 Y71.471 E1.65352
G1 X53.970 Y71.471 E2.62176
G1 X53.970 Y68.529 E2.67265
G1 X111.110 Y68.529 E3.66059
G1 X111.110 Y78.971 E3.84115
G1 X105.913 Y78.971 E3.93100
G1 X105.913 Y91.471 E4.14712
G1 X48.494 Y91.471 E5.13991
G1 X48.494 Y81.029 E5.32047
G1 X52.633 Y81.029 E5.39204
G1 X52.633 Y88.509 E5.52137
G1 X71.690 Y88.509 E5.85087
G1 X71.690 Y75.129 E6.08222
G1 X74.913 Y75.129 E6.13794
G1 X74.913 Y91.269 E6.41700
G1 X91.865 Y91.269 E6.71011
G1 X91.292 Y90.590 F7800.000
G1 X91.292 Y74.450 F3600.000 E6.98917
G1 X109.292 Y74.450 E7.30039
G1 X109.292 Y72.150 E7.34016
G1 X53.292 Y72.150 E8.30841
G1 X53.292 Y67.850 E8.38276
G1 X111.788 Y67.850 E9.39416
G1 X111.788 Y79.650 E9.59819
G1 X106.592 Y79.650 E9.68803
G1 X106.592 Y92.150 E9.90416
G1 X47.815 Y92.150 E10.92041
G1 X47.815 Y80.350 E11.12444
G1 X53.292 Y80.350 E11.21913
G1 X53.292 Y74.450 E11.32114
G1 X53.312 Y74.450 E11.32148
G1 X53.312 Y87.830 E11.55283
G1 X71.012 Y87.830 E11.85886
G1 X71.012 Y74.450 E12.09020
G1 X75.592 Y74.450 E12.16939
G1 X75.592 Y90.590 E12.44845
G1 X91.187 Y90.590 E12.71809
G1 F1800.000 E11.71809
G92 E0
G1 X76.465 Y74.237 F7800.000
G1 F1800.000 E1.00000
G1 X90.767 Y74.172 F3600.000 E1.24729
G1 F1800.000 E0.24729
G92 E0
G1 X74.433 Y75.622 F7800.000
G1 F1800.000 E1.00000
G1 X72.171 Y77.884 F6000.000 E1.05546
G1 X72.171 Y78.844 F7800.000
G1 X74.433 Y76.582 F6000.000 E1.11092
G1 X74.432 Y77.543 F7800.000
G1 X72.170 Y79.805 F6000.000 E1.16638
G1 X72.171 Y80.766 F7800.000
G1 X74.433 Y78.504 F6000.000 E1.22184
G1 X74.432 Y79.465 F7800.000
G1 X72.171 Y81.726 F6000.000 E1.27729
G1 X72.171 Y82.688 F7800.000
G1 X74.433 Y80.426 F6000.000 E1.33275
G1 X74.432 Y81.387 F7800.000
G1 X72.171 Y83.648 F6000.000 E1.38819
G1 X72.171 Y84.610 F7800.000
G1 X74.433 Y82.348 F6000.000 E1.44365
G1 X74.433 Y83.308 F7800.000
G1 X72.171 Y85.570 F6000.000 E1.49911
G1 X72.170 Y86.531 F7800.000
G1 X74.432 Y84.269 F6000.000 E1.55457
G1 X74.433 Y85.230 F7800.000
G1 X72.171 Y87.492 F6000.000 E1.61003
G1 X72.171 Y88.452 F7800.000
G1 X74.432 Y86.191 F6000.000 E1.66547
G1 X74.433 Y87.152 F7800.000
G1 X70.594 Y90.991 F6000.000 E1.75961
G1 X69.633 Y90.991 F7800.000
G1 X71.634 Y88.989 F6000.000 E1.80869
